(1001)
(T7  D=0.25 CR=0. - ZMIN=-0.215 - FLAT END MILL)
G90 G94 G91.1 G40 G49 G17
G20
G28 G91 Z0.
G90

(CIRCULAR2)
M5
M9
T7 M6
G54
M8
G0 X0.2425 Y-0.025
G43 Z0.3 H7
Z-0.02
G1 Z-0.075 F11.5
G18 G2 X0.2675 Z-0.1 I0.025 K0.
G1 X0.28
G17 G3 X0.305 Y0. I0. J0.025
X-0.305 I-0.305 J0.
X0.305 I0.305 J0.
X0.28 Y0.025 I-0.025 J0.
G1 X0.2675
G18 G3 X0.2425 Z-0.075 I0. K0.025
G0 Z0.2
Y-0.025
Z-0.0775
G1 Z-0.1325 F11.5
G2 X0.2675 Z-0.1575 I0.025 K0.
G1 X0.28
G17 G3 X0.305 Y0. I0. J0.025
X-0.305 I-0.305 J0.
X0.305 I0.305 J0.
X0.28 Y0.025 I-0.025 J0.
G1 X0.2675
G18 G3 X0.2425 Z-0.1325 I0. K0.025
G0 Z0.2
Y-0.025
Z-0.135
G1 Z-0.19 F11.5
G2 X0.2675 Z-0.215 I0.025 K0.
G1 X0.28
G17 G3 X0.305 Y0. I0. J0.025
X-0.305 I-0.305 J0.
X0.305 I0.305 J0.
X0.28 Y0.025 I-0.025 J0.
G1 X0.2675
G18 G3 X0.2425 Z-0.19 I0. K0.025
G0 Z0.3
G17

(2D CONTOUR2)
M8
G0 X0.75 Y0.025
Z0.3
Z0.2
G1 Z0.1644 F3.1
Z-0.1
G18 G3 X0.725 Z-0.125 I-0.025 K0.
G1 X0.7 F11.5
G17 G3 X0.675 Y0. I0. J-0.025
G2 X-0.675 I-0.675 J0.
X0.675 I0.675 J0.
G3 X0.7 Y-0.025 I0.025 J0.
G1 X0.725
G18 G2 X0.75 Z-0.1 I0. K0.025
G0 Z0.2
Y0.025
G1 Z0.0394 F3.1
Z-0.19
G3 X0.725 Z-0.215 I-0.025 K0.
G1 X0.7 F11.5
G17 G3 X0.675 Y0. I0. J-0.025
G2 X-0.675 I-0.675 J0.
X0.675 I0.675 J0.
G3 X0.7 Y-0.025 I0.025 J0.
G1 X0.725
G18 G2 X0.75 Z-0.19 I0. K0.025
G0 Z0.3
G17

M9
G28 G91 Z0.
G28 X0. Y0.
M30
