(1001)
(T1  D=0.125 CR=0. - ZMIN=-0.01 - FLAT END MILL)
G90 G94 G91.1 G40 G49 G17
G20
G28 G91 Z0.
G90

(BORE1)
M5
M9
T1 M6
G54
M8
G0 X-0.5612 Y-0.7102
G43 Z0.465 H1
Z0.08
G1 Z0.0125 F39.4
G18 G2 X-0.5487 Z0. I0.0125 K0.
G1 X-0.5424
G17 G3 X-0.5299 Y-0.6977 I0. J0.0125
X-0.5578 Y-0.6705 Z-0.01 I-0.0272 J0. F10.
X-0.5565 Y-0.7249 I0.0007 J-0.0272
X-0.5578 Y-0.6705 I-0.0007 J0.0272
X-0.57 Y-0.6833 I0.0003 J-0.0125 F39.4
G1 X-0.5699 Y-0.6895
X-0.5698 Y-0.6923 Z-0.0097
X-0.5697 Y-0.6949 Z-0.0088
Y-0.6973 Z-0.0073
X-0.5696 Y-0.6993 Z-0.0053
Y-0.7008 Z-0.0029
X-0.5695 Y-0.7017 Z-0.0003
Y-0.702 Z0.0025
G0 Z0.365
X0.7838 Y-0.7102
Z0.08
G1 Z0.0125 F39.4
G18 G2 X0.7963 Z0. I0.0125 K0.
G1 X0.8026
G17 G3 X0.8151 Y-0.6977 I0. J0.0125
X0.7872 Y-0.6705 Z-0.01 I-0.0272 J0. F10.
X0.7885 Y-0.7249 I0.0007 J-0.0272
X0.7872 Y-0.6705 I-0.0007 J0.0272
X0.775 Y-0.6833 I0.0003 J-0.0125 F39.4
G1 X0.7751 Y-0.6895
X0.7752 Y-0.6923 Z-0.0097
X0.7753 Y-0.6949 Z-0.0088
Y-0.6973 Z-0.0073
X0.7754 Y-0.6993 Z-0.0053
Y-0.7008 Z-0.0029
X0.7755 Y-0.7017 Z-0.0003
Y-0.702 Z0.0025
G0 Z0.465

(2D CONTOUR1)
M8
G0 X-0.9446 Y-0.1677
Z0.465
Z0.365
G1 Z0.2044 F13.1
Z0.0025
G19 G2 Y-0.1802 Z-0.01 J-0.0125 K0.
G1 Y-0.1927 F39.4
G17 G3 X-0.9321 Y-0.2052 I0.0125 J0.
G1 X1.1629 F10.
G2 X1.2254 Y-0.2677 I0. J-0.0625
G1 Y-1.1277
G2 X1.1629 Y-1.1902 I-0.0625 J0.
G1 X-0.9321
G2 X-0.9946 Y-1.1277 I0. J0.0625
G1 Y-0.2677
G2 X-0.9321 Y-0.2052 I0.0625 J0.
G3 X-0.9196 Y-0.1927 I0. J0.0125 F39.4
G1 Y-0.1802
G19 G3 Y-0.1677 Z0.0025 J0. K0.0125
G0 Z0.465
G17

M9
G28 G91 Z0.
G28 X0. Y0.
M30
