(1001)
(T11  D=0.125 CR=0. - ZMIN=-0.175 - FLAT END MILL)
G90 G94 G91.1 G40 G49 G17
G20
G28 G91 Z0.
G90

(CIRCULAR2)
M5
M9
T11 M6
G54
M8
G0 X0.3813 Y0.4175
G43 Z0.3394 H11
Z0.
G1 Z-0.0675 F13.8
G18 G2 X0.3938 Z-0.08 I0.0125 K0.
G1 X0.4
G17 G3 X0.4125 Y0.43 I0. J0.0125
X0.2875 I-0.0625 J0.
X0.4125 I0.0625 J0.
X0.4 Y0.4425 I-0.0125 J0.
G1 X0.3938
G18 G3 X0.3813 Z-0.0675 I0. K0.0125
G0 Z0.2394
Y0.4175
Z-0.0475
G1 Z-0.115 F13.8
G2 X0.3938 Z-0.1275 I0.0125 K0.
G1 X0.4
G17 G3 X0.4125 Y0.43 I0. J0.0125
X0.2875 I-0.0625 J0.
X0.4125 I0.0625 J0.
X0.4 Y0.4425 I-0.0125 J0.
G1 X0.3938
G18 G3 X0.3813 Z-0.115 I0. K0.0125
G0 Z0.2394
Y0.4175
Z-0.095
G1 Z-0.1625 F13.8
G2 X0.3938 Z-0.175 I0.0125 K0.
G1 X0.4
G17 G3 X0.4125 Y0.43 I0. J0.0125
X0.2875 I-0.0625 J0.
X0.4125 I0.0625 J0.
X0.4 Y0.4425 I-0.0125 J0.
G1 X0.3938
G18 G3 X0.3813 Z-0.1625 I0. K0.0125
G0 Z0.2394
X1.7129 Y0.4175
Z0.
G1 Z-0.0675 F13.8
G2 X1.7254 Z-0.08 I0.0125 K0.
G1 X1.7316
G17 G3 X1.7441 Y0.43 I0. J0.0125
X1.6191 I-0.0625 J0.
X1.7441 I0.0625 J0.
X1.7316 Y0.4425 I-0.0125 J0.
G1 X1.7254
G18 G3 X1.7129 Z-0.0675 I0. K0.0125
G0 Z0.2394
Y0.4175
Z-0.0475
G1 Z-0.115 F13.8
G2 X1.7254 Z-0.1275 I0.0125 K0.
G1 X1.7316
G17 G3 X1.7441 Y0.43 I0. J0.0125
X1.6191 I-0.0625 J0.
X1.7441 I0.0625 J0.
X1.7316 Y0.4425 I-0.0125 J0.
G1 X1.7254
G18 G3 X1.7129 Z-0.115 I0. K0.0125
G0 Z0.2394
Y0.4175
Z-0.095
G1 Z-0.1625 F13.8
G2 X1.7254 Z-0.175 I0.0125 K0.
G1 X1.7316
G17 G3 X1.7441 Y0.43 I0. J0.0125
X1.6191 I-0.0625 J0.
X1.7441 I0.0625 J0.
X1.7316 Y0.4425 I-0.0125 J0.
G1 X1.7254
G18 G3 X1.7129 Z-0.1625 I0. K0.0125
G0 Z0.3394
G17

(2D CONTOUR1)
M8
G0 Z0.3494
X2.0333 Y-0.1
Z0.2394
G1 Z0.0787 F5.
Z-0.1625
G19 G3 Y-0.0875 Z-0.175 J0.0125 K0.
G1 Y-0.075 F13.8
G17 G3 X2.0208 Y-0.0625 I-0.0125 J0.
G1 X0.
G2 X-0.0625 Y0. I0. J0.0625
G1 Y0.86
G2 X0. Y0.9225 I0.0625 J0.
G1 X2.045
G2 X2.1075 Y0.86 I0. J-0.0625
G1 Y0.
G2 X2.045 Y-0.0625 I-0.0625 J0.
G1 X2.0208
G3 X2.0083 Y-0.075 I0. J-0.0125
G1 Y-0.0875
G19 G2 Y-0.1 Z-0.1625 J0. K0.0125
G0 Z0.3494
G17

M9
G28 G91 Z0.
G28 X0. Y0.
M30
