(1001)
(T11  D=0.125 CR=0. - ZMIN=-0.175 - FLAT END MILL)
G90 G94 G91.1 G40 G49 G17
G20
G28 G91 Z0.
G90

(BORE1)
M5
M9
T11 M6
G54
M8
G0 X0.3813 Y0.4175
G43 Z0.64 H11
Z0.08
G1 Z0.0125 F13.8
G18 G2 X0.3938 Z0. I0.0125 K0.
G1 X0.4
G17 G3 X0.4125 Y0.43 I0. J0.0125
X0.2875 Z-0.0197 I-0.0625 J0.
X0.4125 Z-0.0394 I0.0625 J0.
X0.2875 Z-0.0591 I-0.0625 J0.
X0.4125 Z-0.0787 I0.0625 J0.
X0.2875 Z-0.0984 I-0.0625 J0.
X0.4125 Z-0.1181 I0.0625 J0.
X0.2875 Z-0.1378 I-0.0625 J0.
X0.4125 Z-0.1575 I0.0625 J0.
X0.2912 Y0.4512 Z-0.175 I-0.0625 J0.
X0.4088 Y0.4088 I0.0588 J-0.0212
X0.2912 Y0.4512 I-0.0588 J0.0212
X0.2987 Y0.4352 I0.0118 J-0.0042
G1 X0.3046 Y0.4331
X0.3072 Y0.4321 Z-0.1747
X0.3097 Y0.4312 Z-0.1738
X0.3119 Y0.4304 Z-0.1723
X0.3138 Y0.4297 Z-0.1703
X0.3152 Y0.4292 Z-0.1679
X0.3161 Y0.4289 Z-0.1653
X0.3164 Y0.4288 Z-0.1625
G0 Z0.24
X1.7129 Y0.4175
Z0.08
G1 Z0.0125 F13.8
G18 G2 X1.7254 Z0. I0.0125 K0.
G1 X1.7316
G17 G3 X1.7441 Y0.43 I0. J0.0125
X1.6191 Z-0.0197 I-0.0625 J0.
X1.7441 Z-0.0394 I0.0625 J0.
X1.6191 Z-0.0591 I-0.0625 J0.
X1.7441 Z-0.0787 I0.0625 J0.
X1.6191 Z-0.0984 I-0.0625 J0.
X1.7441 Z-0.1181 I0.0625 J0.
X1.6191 Z-0.1378 I-0.0625 J0.
X1.7441 Z-0.1575 I0.0625 J0.
X1.6228 Y0.4512 Z-0.175 I-0.0625 J0.
X1.7404 Y0.4088 I0.0588 J-0.0212
X1.6228 Y0.4512 I-0.0588 J0.0212
X1.6304 Y0.4352 I0.0118 J-0.0042
G1 X1.6362 Y0.4331
X1.6389 Y0.4321 Z-0.1747
X1.6413 Y0.4312 Z-0.1738
X1.6436 Y0.4304 Z-0.1723
X1.6454 Y0.4297 Z-0.1703
X1.6468 Y0.4292 Z-0.1679
X1.6477 Y0.4289 Z-0.1653
X1.648 Y0.4288 Z-0.1625
G0 Z0.64

(2D CONTOUR1)
M8
G0 X2.0333 Y-0.1
Z0.34
Z0.24
G1 Z0.1594 F5.
Z-0.0275
G19 G3 Y-0.0875 Z-0.04 J0.0125 K0.
G1 Y-0.075 F13.8
G17 G3 X2.0208 Y-0.0625 I-0.0125 J0.
G1 X0.
G2 X-0.0625 Y0. I0. J0.0625
G1 Y0.86
G2 X0. Y0.9225 I0.0625 J0.
G1 X2.045
G2 X2.1075 Y0.86 I0. J-0.0625
G1 Y0.
G2 X2.045 Y-0.0625 I-0.0625 J0.
G1 X2.0208
G3 X2.0083 Y-0.075 I0. J-0.0125
G1 Y-0.0875
G19 G2 Y-0.1 Z-0.0275 J0. K0.0125
G0 Z0.24
X2.0333
G1 Z0.0794 F5.
Z-0.1075
G3 Y-0.0875 Z-0.12 J0.0125 K0.
G1 Y-0.075 F13.8
G17 G3 X2.0208 Y-0.0625 I-0.0125 J0.
G1 X0.
G2 X-0.0625 Y0. I0. J0.0625
G1 Y0.86
G2 X0. Y0.9225 I0.0625 J0.
G1 X2.045
G2 X2.1075 Y0.86 I0. J-0.0625
G1 Y0.
G2 X2.045 Y-0.0625 I-0.0625 J0.
G1 X2.0208
G3 X2.0083 Y-0.075 I0. J-0.0125
G1 Y-0.0875
G19 G2 Y-0.1 Z-0.1075 J0. K0.0125
G0 Z0.24
X2.0333
G1 Z-0.0006 F5.
Z-0.1625
G3 Y-0.0875 Z-0.175 J0.0125 K0.
G1 Y-0.075 F13.8
G17 G3 X2.0208 Y-0.0625 I-0.0125 J0.
G1 X0.
G2 X-0.0625 Y0. I0. J0.0625
G1 Y0.86
G2 X0. Y0.9225 I0.0625 J0.
G1 X2.045
G2 X2.1075 Y0.86 I0. J-0.0625
G1 Y0.
G2 X2.045 Y-0.0625 I-0.0625 J0.
G1 X2.0208
G3 X2.0083 Y-0.075 I0. J-0.0125
G1 Y-0.0875
G19 G2 Y-0.1 Z-0.1625 J0. K0.0125
G0 Z0.34
G17

M9
G28 G91 Z0.
G28 X0. Y0.
M30
