(1001)
(T1  D=0.125 CR=0. - ZMIN=-0.14 - FLAT END MILL)
G90 G94 G91.1 G40 G49 G17
G20
G28 G91 Z0.
G90

(BORE2)
M5
M9
T1 M6
G54
M8
G0 X0.4638 Y0.2355
G43 Z0.3394 H1
Z0.1194
G1 Z0.0519 F39.4
G18 G2 X0.4763 Z0.0394 I0.0125 K0.
G1 X0.4825
G17 G3 X0.492 Y0.245 I0. J0.0095
X0.454 Z0.0197 I-0.019 J0.
X0.492 Z0. I0.019 J0.
X0.454 Z-0.0197 I-0.019 J0.
X0.492 Z-0.0394 I0.019 J0.
X0.454 Z-0.0591 I-0.019 J0.
X0.492 Z-0.0787 I0.019 J0.
X0.454 Z-0.0984 I-0.019 J0.
X0.492 Z-0.1181 I0.019 J0.
X0.454 Z-0.1378 I-0.019 J0.
X0.4552 Y0.2385 Z-0.14 I0.019 J0.
X0.4908 Y0.2515 I0.0178 J0.0065
X0.4552 Y0.2385 I-0.0178 J-0.0065
X0.4674 Y0.2328 I0.0089 J0.0033
G1 X0.4732 Y0.235
X0.4758 Y0.2359 Z-0.1397
X0.4783 Y0.2368 Z-0.1388
X0.4805 Y0.2376 Z-0.1373
X0.4824 Y0.2383 Z-0.1353
X0.4838 Y0.2388 Z-0.1329
X0.4847 Y0.2392 Z-0.1303
X0.485 Y0.2393 Z-0.1275
G0 Z0.2394
X0.4638 Y0.7355
Z0.1194
G1 Z0.0519 F39.4
G18 G2 X0.4763 Z0.0394 I0.0125 K0.
G1 X0.4825
G17 G3 X0.492 Y0.745 I0. J0.0095
X0.454 Z0.0197 I-0.019 J0.
X0.492 Z0. I0.019 J0.
X0.454 Z-0.0197 I-0.019 J0.
X0.492 Z-0.0394 I0.019 J0.
X0.454 Z-0.0591 I-0.019 J0.
X0.492 Z-0.0787 I0.019 J0.
X0.454 Z-0.0984 I-0.019 J0.
X0.492 Z-0.1181 I0.019 J0.
X0.454 Z-0.1378 I-0.019 J0.
X0.4552 Y0.7385 Z-0.14 I0.019 J0.
X0.4908 Y0.7515 I0.0178 J0.0065
X0.4552 Y0.7385 I-0.0178 J-0.0065
X0.4674 Y0.7328 I0.0089 J0.0033
G1 X0.4732 Y0.735
X0.4758 Y0.7359 Z-0.1397
X0.4783 Y0.7368 Z-0.1388
X0.4805 Y0.7376 Z-0.1373
X0.4824 Y0.7383 Z-0.1353
X0.4838 Y0.7388 Z-0.1329
X0.4847 Y0.7392 Z-0.1303
X0.485 Y0.7393 Z-0.1275
G0 Z0.2394
X0.4638 Y1.2355
Z0.1194
G1 Z0.0519 F39.4
G18 G2 X0.4763 Z0.0394 I0.0125 K0.
G1 X0.4825
G17 G3 X0.492 Y1.245 I0. J0.0095
X0.454 Z0.0197 I-0.019 J0.
X0.492 Z0. I0.019 J0.
X0.454 Z-0.0197 I-0.019 J0.
X0.492 Z-0.0394 I0.019 J0.
X0.454 Z-0.0591 I-0.019 J0.
X0.492 Z-0.0787 I0.019 J0.
X0.454 Z-0.0984 I-0.019 J0.
X0.492 Z-0.1181 I0.019 J0.
X0.454 Z-0.1378 I-0.019 J0.
X0.4552 Y1.2385 Z-0.14 I0.019 J0.
X0.4908 Y1.2515 I0.0178 J0.0065
X0.4552 Y1.2385 I-0.0178 J-0.0065
X0.4674 Y1.2328 I0.0089 J0.0033
G1 X0.4732 Y1.235
X0.4758 Y1.2359 Z-0.1397
X0.4783 Y1.2368 Z-0.1388
X0.4805 Y1.2376 Z-0.1373
X0.4824 Y1.2383 Z-0.1353
X0.4838 Y1.2388 Z-0.1329
X0.4847 Y1.2392 Z-0.1303
X0.485 Y1.2393 Z-0.1275
G0 Z0.2394
X0.4638 Y1.7355
Z0.1194
G1 Z0.0519 F39.4
G18 G2 X0.4763 Z0.0394 I0.0125 K0.
G1 X0.4825
G17 G3 X0.492 Y1.745 I0. J0.0095
X0.454 Z0.0197 I-0.019 J0.
X0.492 Z0. I0.019 J0.
X0.454 Z-0.0197 I-0.019 J0.
X0.492 Z-0.0394 I0.019 J0.
X0.454 Z-0.0591 I-0.019 J0.
X0.492 Z-0.0787 I0.019 J0.
X0.454 Z-0.0984 I-0.019 J0.
X0.492 Z-0.1181 I0.019 J0.
X0.454 Z-0.1378 I-0.019 J0.
X0.4552 Y1.7385 Z-0.14 I0.019 J0.
X0.4908 Y1.7515 I0.0178 J0.0065
X0.4552 Y1.7385 I-0.0178 J-0.0065
X0.4674 Y1.7328 I0.0089 J0.0033
G1 X0.4732 Y1.735
X0.4758 Y1.7359 Z-0.1397
X0.4783 Y1.7368 Z-0.1388
X0.4805 Y1.7376 Z-0.1373
X0.4824 Y1.7383 Z-0.1353
X0.4838 Y1.7388 Z-0.1329
X0.4847 Y1.7392 Z-0.1303
X0.485 Y1.7393 Z-0.1275
G0 Z0.2394
X0.4638 Y2.2355
Z0.1194
G1 Z0.0519 F39.4
G18 G2 X0.4763 Z0.0394 I0.0125 K0.
G1 X0.4825
G17 G3 X0.492 Y2.245 I0. J0.0095
X0.454 Z0.0197 I-0.019 J0.
X0.492 Z0. I0.019 J0.
X0.454 Z-0.0197 I-0.019 J0.
X0.492 Z-0.0394 I0.019 J0.
X0.454 Z-0.0591 I-0.019 J0.
X0.492 Z-0.0787 I0.019 J0.
X0.454 Z-0.0984 I-0.019 J0.
X0.492 Z-0.1181 I0.019 J0.
X0.454 Z-0.1378 I-0.019 J0.
X0.4552 Y2.2385 Z-0.14 I0.019 J0.
X0.4908 Y2.2515 I0.0178 J0.0065
X0.4552 Y2.2385 I-0.0178 J-0.0065
X0.4674 Y2.2328 I0.0089 J0.0033
G1 X0.4732 Y2.235
X0.4758 Y2.2359 Z-0.1397
X0.4783 Y2.2368 Z-0.1388
X0.4805 Y2.2376 Z-0.1373
X0.4824 Y2.2383 Z-0.1353
X0.4838 Y2.2388 Z-0.1329
X0.4847 Y2.2392 Z-0.1303
X0.485 Y2.2393 Z-0.1275
G0 Z0.2394
X0.8932 Y2.4983
Z0.1194
G1 Z0.0519 F39.4
X0.8933 Y2.498 Z0.0491
X0.8938 Y2.4972 Z0.0464
X0.8945 Y2.4959 Z0.0441
X0.8955 Y2.4942 Z0.0421
X0.8967 Y2.4921 Z0.0406
X0.898 Y2.4898 Z0.0397
X0.8994 Y2.4874 Z0.0394
X0.9025 Y2.482
G3 X0.9155 Y2.4785 I0.0082 J0.0048
X0.8965 Y2.5115 Z0.0197 I-0.0095 J0.0165
X0.9155 Y2.4785 Z0. I0.0095 J-0.0165
X0.8965 Y2.5115 Z-0.0197 I-0.0095 J0.0165
X0.9155 Y2.4785 Z-0.0394 I0.0095 J-0.0165
X0.8965 Y2.5115 Z-0.0591 I-0.0095 J0.0165
X0.9155 Y2.4785 Z-0.0787 I0.0095 J-0.0165
X0.8965 Y2.5115 Z-0.0984 I-0.0095 J0.0165
X0.9155 Y2.4785 Z-0.1181 I0.0095 J-0.0165
X0.8965 Y2.5115 Z-0.1378 I-0.0095 J0.0165
X0.8914 Y2.5072 Z-0.14 I0.0095 J-0.0165
X0.9206 Y2.4828 I0.0146 J-0.0122
X0.8914 Y2.5072 I-0.0146 J0.0122
X0.8926 Y2.4938 I0.0073 J-0.0061
G1 X0.8974 Y2.4898
X0.8996 Y2.488 Z-0.1397
X0.9016 Y2.4863 Z-0.1388
X0.9034 Y2.4848 Z-0.1373
X0.9049 Y2.4835 Z-0.1353
X0.9061 Y2.4826 Z-0.1329
X0.9068 Y2.482 Z-0.1303
X0.907 Y2.4818 Z-0.1275
G0 Z0.2394
X1.3262 Y2.7483
Z0.1194
G1 Z0.0519 F39.4
X1.3263 Y2.748 Z0.0491
X1.3268 Y2.7472 Z0.0464
X1.3275 Y2.7459 Z0.0441
X1.3285 Y2.7442 Z0.0421
X1.3297 Y2.7421 Z0.0406
X1.331 Y2.7398 Z0.0397
X1.3324 Y2.7374 Z0.0394
X1.3355 Y2.732
G3 X1.3485 Y2.7285 I0.0082 J0.0048
X1.3295 Y2.7615 Z0.0197 I-0.0095 J0.0165
X1.3485 Y2.7285 Z0. I0.0095 J-0.0165
X1.3295 Y2.7615 Z-0.0197 I-0.0095 J0.0165
X1.3485 Y2.7285 Z-0.0394 I0.0095 J-0.0165
X1.3295 Y2.7615 Z-0.0591 I-0.0095 J0.0165
X1.3485 Y2.7285 Z-0.0787 I0.0095 J-0.0165
X1.3295 Y2.7615 Z-0.0984 I-0.0095 J0.0165
X1.3485 Y2.7285 Z-0.1181 I0.0095 J-0.0165
X1.3295 Y2.7615 Z-0.1378 I-0.0095 J0.0165
X1.3244 Y2.7572 Z-0.14 I0.0095 J-0.0165
X1.3536 Y2.7328 I0.0146 J-0.0122
X1.3244 Y2.7572 I-0.0146 J0.0122
X1.3256 Y2.7438 I0.0073 J-0.0061
G1 X1.3304 Y2.7398
X1.3326 Y2.738 Z-0.1397
X1.3346 Y2.7363 Z-0.1388
X1.3364 Y2.7348 Z-0.1373
X1.3379 Y2.7335 Z-0.1353
X1.3391 Y2.7326 Z-0.1329
X1.3398 Y2.732 Z-0.1303
X1.34 Y2.7318 Z-0.1275
G0 Z0.2394
X1.7592 Y2.9983
Z0.1194
G1 Z0.0519 F39.4
X1.7593 Y2.998 Z0.0491
X1.7598 Y2.9972 Z0.0464
X1.7605 Y2.9959 Z0.0441
X1.7615 Y2.9942 Z0.0421
X1.7627 Y2.9921 Z0.0406
X1.764 Y2.9898 Z0.0397
X1.7654 Y2.9874 Z0.0394
X1.7686 Y2.982
G3 X1.7815 Y2.9785 I0.0082 J0.0048
X1.7625 Y3.0115 Z0.0197 I-0.0095 J0.0165
X1.7815 Y2.9785 Z0. I0.0095 J-0.0165
X1.7625 Y3.0115 Z-0.0197 I-0.0095 J0.0165
X1.7815 Y2.9785 Z-0.0394 I0.0095 J-0.0165
X1.7625 Y3.0115 Z-0.0591 I-0.0095 J0.0165
X1.7815 Y2.9785 Z-0.0787 I0.0095 J-0.0165
X1.7625 Y3.0115 Z-0.0984 I-0.0095 J0.0165
X1.7815 Y2.9785 Z-0.1181 I0.0095 J-0.0165
X1.7625 Y3.0115 Z-0.1378 I-0.0095 J0.0165
X1.7574 Y3.0072 Z-0.14 I0.0095 J-0.0165
X1.7866 Y2.9828 I0.0146 J-0.0122
X1.7574 Y3.0072 I-0.0146 J0.0122
X1.7587 Y2.9938 I0.0073 J-0.0061
G1 X1.7635 Y2.9898
X1.7656 Y2.988 Z-0.1397
X1.7676 Y2.9863 Z-0.1388
X1.7694 Y2.9848 Z-0.1373
X1.771 Y2.9835 Z-0.1353
X1.7721 Y2.9826 Z-0.1329
X1.7728 Y2.982 Z-0.1303
X1.7731 Y2.9818 Z-0.1275
G0 Z0.2394
X2.1922 Y3.2483
Z0.1194
G1 Z0.0519 F39.4
X2.1924 Y3.248 Z0.0491
X2.1928 Y3.2472 Z0.0464
X2.1936 Y3.2459 Z0.0441
X2.1946 Y3.2442 Z0.0421
X2.1957 Y3.2421 Z0.0406
X2.1971 Y3.2398 Z0.0397
X2.1984 Y3.2374 Z0.0394
X2.2016 Y3.232
G3 X2.2146 Y3.2285 I0.0082 J0.0048
X2.1956 Y3.2615 Z0.0197 I-0.0095 J0.0165
X2.2146 Y3.2285 Z0. I0.0095 J-0.0165
X2.1956 Y3.2615 Z-0.0197 I-0.0095 J0.0165
X2.2146 Y3.2285 Z-0.0394 I0.0095 J-0.0165
X2.1956 Y3.2615 Z-0.0591 I-0.0095 J0.0165
X2.2146 Y3.2285 Z-0.0787 I0.0095 J-0.0165
X2.1956 Y3.2615 Z-0.0984 I-0.0095 J0.0165
X2.2146 Y3.2285 Z-0.1181 I0.0095 J-0.0165
X2.1956 Y3.2615 Z-0.1378 I-0.0095 J0.0165
X2.1905 Y3.2572 Z-0.14 I0.0095 J-0.0165
X2.2196 Y3.2328 I0.0146 J-0.0122
X2.1905 Y3.2572 I-0.0146 J0.0122
X2.1917 Y3.2438 I0.0073 J-0.0061
G1 X2.1965 Y3.2398
X2.1986 Y3.238 Z-0.1397
X2.2006 Y3.2363 Z-0.1388
X2.2025 Y3.2348 Z-0.1373
X2.204 Y3.2335 Z-0.1353
X2.2051 Y3.2326 Z-0.1329
X2.2058 Y3.232 Z-0.1303
X2.2061 Y3.2318 Z-0.1275
G0 Z0.3394

(2D CONTOUR3)
M8
G0 Z0.6394
X2.0668 Y3.8508
Z0.2394
G1 Z0.0787 F13.1
Z-0.1275
X2.0669 Y3.8505 Z-0.1303
X2.0671 Y3.8496 Z-0.1329
X2.0674 Y3.8481 Z-0.1353
X2.0678 Y3.8462 Z-0.1373
X2.0682 Y3.8438 Z-0.1388
X2.0687 Y3.8412 Z-0.1397
X2.0693 Y3.8385 Z-0.14
X2.0717 Y3.8262 F39.4
G3 X2.0864 Y3.8164 I0.0123 J0.0024
G2 X2.0986 Y3.8176 I0.0122 J-0.0613
G1 X2.1934
G2 X2.2476 Y3.7864 I0. J-0.0625
G1 X2.6778 Y3.0412
G2 X2.684 Y3.0261 I-0.0541 J-0.0312
G1 X2.706 Y2.944
G2 X2.6769 Y2.8737 I-0.0604 J-0.0162
G1 X1.1243 Y1.9773
G3 X1.0305 Y1.8149 I0.0938 J-0.1624
G1 Y0.022
G2 X0.9842 Y-0.0384 I-0.0625 J0.
G1 X0.9021 Y-0.0604
G2 X0.8859 Y-0.0625 I-0.0162 J0.0604
G1 X0.
G2 X-0.0604 Y-0.0162 I0. J0.0625
G1 X-0.0824 Y0.0659
G2 X-0.0845 Y0.0821 I0.0604 J0.0162
G1 Y2.4817
G2 X-0.0761 Y2.513 I0.0625 J0.
G1 X-0.0336 Y2.5866
G2 X-0.0107 Y2.6095 I0.0541 J-0.0312
G1 X2.0674 Y3.8093
G2 X2.0864 Y3.8164 I0.0313 J-0.0541
G3 X2.0962 Y3.8311 I-0.0024 J0.0123
G1 X2.0938 Y3.8434
X2.0933 Y3.8461 Z-0.1397
X2.0927 Y3.8487 Z-0.1388
X2.0923 Y3.851 Z-0.1373
X2.0919 Y3.853 Z-0.1353
X2.0916 Y3.8544 Z-0.1329
X2.0914 Y3.8553 Z-0.1303
Y3.8556 Z-0.1275
G0 Z0.6394

M9
G28 G91 Z0.
G28 X0. Y0.
M30
