(VEX60GUSSET)
(T1  D=0.125 CR=0.0625 - ZMIN=-0.09 - BALL END MILL)
G90 G94 G91.1 G40 G49 G17
G20
G28 G91 Z0.
G90

(2D CONTOUR3)
M5
M9
T1 M6
G54
M8
G0 X0.5069 Y-0.3479
G43 Z0.34 H1
Z0.24
G1 Z0.0794 F13.1
Z-0.0775
Y-0.3476 Z-0.0803
X0.5068 Y-0.3467 Z-0.0829
X0.5066 Y-0.3452 Z-0.0853
X0.5064 Y-0.3432 Z-0.0873
X0.5061 Y-0.3409 Z-0.0888
X0.5058 Y-0.3382 Z-0.0897
X0.5055 Y-0.3355 Z-0.09
X0.5041 Y-0.3231 F39.4
G3 X0.4902 Y-0.3121 I-0.0124 J-0.0014
G2 X0.483 Y-0.3125 I-0.0072 J0.0621 F15.
G1 X-0.4129
G2 X-0.4291 Y-0.3104 I0. J0.0625
G1 X-0.5112 Y-0.2884
G2 X-0.5575 Y-0.228 I0.0162 J0.0604
G1 Y2.538
G2 X-0.5554 Y2.5541 I0.0625 J0.
G1 X-0.5334 Y2.6362
G2 X-0.5043 Y2.6742 I0.0604 J-0.0162
G1 X0.1013 Y3.0238
G2 X0.1487 Y3.03 I0.0313 J-0.0541
G1 X0.2308 Y3.008
G2 X0.2459 Y3.0018 I-0.0162 J-0.0604
G1 X2.6413 Y1.6188
G2 X2.6704 Y1.5485 I-0.0312 J-0.0541
G1 X2.6484 Y1.4664
G2 X2.6421 Y1.4513 I-0.0604 J0.0162
G1 X2.1942 Y0.6755
G2 X2.1239 Y0.6463 I-0.0541 J0.0312
G1 X2.0418 Y0.6683
G2 X2.0267 Y0.6746 I0.0162 J0.0604
G1 X0.6613 Y1.4629
G3 X0.5675 Y1.4088 I-0.0312 J-0.0541
G1 Y-0.1679
G2 X0.5654 Y-0.1841 I-0.0625 J0.
G1 X0.5434 Y-0.2662
G2 X0.4902 Y-0.3121 I-0.0604 J0.0162
G3 X0.4792 Y-0.3259 I0.0014 J-0.0124 F39.4
G1 X0.4807 Y-0.3384
X0.481 Y-0.3411 Z-0.0897
X0.4813 Y-0.3437 Z-0.0888
X0.4816 Y-0.3461 Z-0.0873
X0.4818 Y-0.3481 Z-0.0853
X0.482 Y-0.3495 Z-0.0829
X0.4821 Y-0.3505 Z-0.0803
Y-0.3508 Z-0.0775
G0 Z0.34

M9
G28 G91 Z0.
G28 X0. Y0.
M30
