(1001)
(T1  D=0.125 CR=0. - ZMIN=-0.14 - FLAT END MILL)
G90 G94 G91.1 G40 G49 G17
G20
G28 G91 Z0.
G90

(BORE2)
M5
M9
T1 M6
G54
M8
G0 X0.4857 Y0.1505
G43 Z0.34 H1
Z0.12
G1 Z0.0525 F39.4
G18 G2 X0.4983 Z0.04 I0.0125 K0.
G1 X0.5045
G17 G3 X0.514 Y0.16 I0. J0.0095
X0.476 Z0.0203 I-0.019 J0. F150.
X0.514 Z0.0006 I0.019 J0.
X0.476 Z-0.0191 I-0.019 J0.
X0.514 Z-0.0387 I0.019 J0.
X0.476 Z-0.0584 I-0.019 J0.
X0.514 Z-0.0781 I0.019 J0.
X0.476 Z-0.0978 I-0.019 J0.
X0.514 Z-0.1175 I0.019 J0.
X0.476 Z-0.1372 I-0.019 J0.
X0.4779 Y0.1517 Z-0.14 I0.019 J0.
X0.5121 Y0.1683 I0.0171 J0.0083
X0.4779 Y0.1517 I-0.0171 J-0.0083
X0.4906 Y0.1473 I0.0085 J0.0042 F39.4
G1 X0.4962 Y0.15
X0.4987 Y0.1513 Z-0.1397
X0.5011 Y0.1524 Z-0.1388
X0.5032 Y0.1534 Z-0.1373
X0.505 Y0.1543 Z-0.1353
X0.5064 Y0.155 Z-0.1329
X0.5072 Y0.1554 Z-0.1303
X0.5075 Y0.1555 Z-0.1275
G0 Z0.24
X0.4857 Y0.6505
Z0.12
G1 Z0.0525 F39.4
G18 G2 X0.4983 Z0.04 I0.0125 K0.
G1 X0.5045
G17 G3 X0.514 Y0.66 I0. J0.0095
X0.476 Z0.0203 I-0.019 J0. F150.
X0.514 Z0.0006 I0.019 J0.
X0.476 Z-0.0191 I-0.019 J0.
X0.514 Z-0.0387 I0.019 J0.
X0.476 Z-0.0584 I-0.019 J0.
X0.514 Z-0.0781 I0.019 J0.
X0.476 Z-0.0978 I-0.019 J0.
X0.514 Z-0.1175 I0.019 J0.
X0.476 Z-0.1372 I-0.019 J0.
X0.4779 Y0.6517 Z-0.14 I0.019 J0.
X0.5121 Y0.6683 I0.0171 J0.0083
X0.4779 Y0.6517 I-0.0171 J-0.0083
X0.4906 Y0.6473 I0.0085 J0.0042 F39.4
G1 X0.4962 Y0.65
X0.4987 Y0.6513 Z-0.1397
X0.5011 Y0.6524 Z-0.1388
X0.5032 Y0.6534 Z-0.1373
X0.505 Y0.6543 Z-0.1353
X0.5064 Y0.655 Z-0.1329
X0.5072 Y0.6554 Z-0.1303
X0.5075 Y0.6555 Z-0.1275
G0 Z0.24
X0.4857 Y1.1505
Z0.12
G1 Z0.0525 F39.4
G18 G2 X0.4983 Z0.04 I0.0125 K0.
G1 X0.5045
G17 G3 X0.514 Y1.16 I0. J0.0095
X0.476 Z0.0203 I-0.019 J0. F150.
X0.514 Z0.0006 I0.019 J0.
X0.476 Z-0.0191 I-0.019 J0.
X0.514 Z-0.0387 I0.019 J0.
X0.476 Z-0.0584 I-0.019 J0.
X0.514 Z-0.0781 I0.019 J0.
X0.476 Z-0.0978 I-0.019 J0.
X0.514 Z-0.1175 I0.019 J0.
X0.476 Z-0.1372 I-0.019 J0.
X0.4779 Y1.1517 Z-0.14 I0.019 J0.
X0.5121 Y1.1683 I0.0171 J0.0083
X0.4779 Y1.1517 I-0.0171 J-0.0083
X0.4906 Y1.1473 I0.0085 J0.0042 F39.4
G1 X0.4962 Y1.15
X0.4987 Y1.1513 Z-0.1397
X0.5011 Y1.1524 Z-0.1388
X0.5032 Y1.1534 Z-0.1373
X0.505 Y1.1543 Z-0.1353
X0.5064 Y1.155 Z-0.1329
X0.5072 Y1.1554 Z-0.1303
X0.5075 Y1.1555 Z-0.1275
G0 Z0.24
X0.4857 Y1.6505
Z0.12
G1 Z0.0525 F39.4
G18 G2 X0.4983 Z0.04 I0.0125 K0.
G1 X0.5045
G17 G3 X0.514 Y1.66 I0. J0.0095
X0.476 Z0.0203 I-0.019 J0. F150.
X0.514 Z0.0006 I0.019 J0.
X0.476 Z-0.0191 I-0.019 J0.
X0.514 Z-0.0387 I0.019 J0.
X0.476 Z-0.0584 I-0.019 J0.
X0.514 Z-0.0781 I0.019 J0.
X0.476 Z-0.0978 I-0.019 J0.
X0.514 Z-0.1175 I0.019 J0.
X0.476 Z-0.1372 I-0.019 J0.
X0.4779 Y1.6517 Z-0.14 I0.019 J0.
X0.5121 Y1.6683 I0.0171 J0.0083
X0.4779 Y1.6517 I-0.0171 J-0.0083
X0.4906 Y1.6473 I0.0085 J0.0042 F39.4
G1 X0.4962 Y1.65
X0.4987 Y1.6513 Z-0.1397
X0.5011 Y1.6524 Z-0.1388
X0.5032 Y1.6534 Z-0.1373
X0.505 Y1.6543 Z-0.1353
X0.5064 Y1.655 Z-0.1329
X0.5072 Y1.6554 Z-0.1303
X0.5075 Y1.6555 Z-0.1275
G0 Z0.24
X0.4857 Y2.1505
Z0.12
G1 Z0.0525 F39.4
G18 G2 X0.4983 Z0.04 I0.0125 K0.
G1 X0.5045
G17 G3 X0.514 Y2.16 I0. J0.0095
X0.476 Z0.0203 I-0.019 J0. F150.
X0.514 Z0.0006 I0.019 J0.
X0.476 Z-0.0191 I-0.019 J0.
X0.514 Z-0.0387 I0.019 J0.
X0.476 Z-0.0584 I-0.019 J0.
X0.514 Z-0.0781 I0.019 J0.
X0.476 Z-0.0978 I-0.019 J0.
X0.514 Z-0.1175 I0.019 J0.
X0.476 Z-0.1372 I-0.019 J0.
X0.4779 Y2.1517 Z-0.14 I0.019 J0.
X0.5121 Y2.1683 I0.0171 J0.0083
X0.4779 Y2.1517 I-0.0171 J-0.0083
X0.4906 Y2.1473 I0.0085 J0.0042 F39.4
G1 X0.4962 Y2.15
X0.4987 Y2.1513 Z-0.1397
X0.5011 Y2.1524 Z-0.1388
X0.5032 Y2.1534 Z-0.1373
X0.505 Y2.1543 Z-0.1353
X0.5064 Y2.155 Z-0.1329
X0.5072 Y2.1554 Z-0.1303
X0.5075 Y2.1555 Z-0.1275
G0 Z0.24
X0.9857 Y2.1505
Z0.12
G1 Z0.0525 F39.4
G18 G2 X0.9983 Z0.04 I0.0125 K0.
G1 X1.0045
G17 G3 X1.014 Y2.16 I0. J0.0095
X0.976 Z0.0203 I-0.019 J0. F150.
X1.014 Z0.0006 I0.019 J0.
X0.976 Z-0.0191 I-0.019 J0.
X1.014 Z-0.0387 I0.019 J0.
X0.976 Z-0.0584 I-0.019 J0.
X1.014 Z-0.0781 I0.019 J0.
X0.976 Z-0.0978 I-0.019 J0.
X1.014 Z-0.1175 I0.019 J0.
X0.976 Z-0.1372 I-0.019 J0.
X0.9779 Y2.1517 Z-0.14 I0.019 J0.
X1.0121 Y2.1683 I0.0171 J0.0083
X0.9779 Y2.1517 I-0.0171 J-0.0083
X0.9906 Y2.1473 I0.0085 J0.0042 F39.4
G1 X0.9962 Y2.15
X0.9987 Y2.1513 Z-0.1397
X1.0011 Y2.1524 Z-0.1388
X1.0032 Y2.1534 Z-0.1373
X1.005 Y2.1543 Z-0.1353
X1.0064 Y2.155 Z-0.1329
X1.0072 Y2.1554 Z-0.1303
X1.0075 Y2.1555 Z-0.1275
G0 Z0.24
X1.4857 Y2.1505
Z0.12
G1 Z0.0525 F39.4
G18 G2 X1.4982 Z0.04 I0.0125 K0.
G1 X1.5045
G17 G3 X1.514 Y2.16 I0. J0.0095
X1.476 Z0.0203 I-0.019 J0. F150.
X1.514 Z0.0006 I0.019 J0.
X1.476 Z-0.0191 I-0.019 J0.
X1.514 Z-0.0387 I0.019 J0.
X1.476 Z-0.0584 I-0.019 J0.
X1.514 Z-0.0781 I0.019 J0.
X1.476 Z-0.0978 I-0.019 J0.
X1.514 Z-0.1175 I0.019 J0.
X1.476 Z-0.1372 I-0.019 J0.
X1.4779 Y2.1517 Z-0.14 I0.019 J0.
X1.5121 Y2.1683 I0.0171 J0.0083
X1.4779 Y2.1517 I-0.0171 J-0.0083
X1.4906 Y2.1473 I0.0085 J0.0042 F39.4
G1 X1.4962 Y2.15
X1.4987 Y2.1513 Z-0.1397
X1.5011 Y2.1524 Z-0.1388
X1.5032 Y2.1534 Z-0.1373
X1.505 Y2.1543 Z-0.1353
X1.5064 Y2.155 Z-0.1329
X1.5072 Y2.1554 Z-0.1303
X1.5075 Y2.1555 Z-0.1275
G0 Z0.24
X1.9857 Y2.1505
Z0.12
G1 Z0.0525 F39.4
G18 G2 X1.9983 Z0.04 I0.0125 K0.
G1 X2.0045
G17 G3 X2.014 Y2.16 I0. J0.0095
X1.976 Z0.0203 I-0.019 J0. F150.
X2.014 Z0.0006 I0.019 J0.
X1.976 Z-0.0191 I-0.019 J0.
X2.014 Z-0.0387 I0.019 J0.
X1.976 Z-0.0584 I-0.019 J0.
X2.014 Z-0.0781 I0.019 J0.
X1.976 Z-0.0978 I-0.019 J0.
X2.014 Z-0.1175 I0.019 J0.
X1.976 Z-0.1372 I-0.019 J0.
X1.9779 Y2.1517 Z-0.14 I0.019 J0.
X2.0121 Y2.1683 I0.0171 J0.0083
X1.9779 Y2.1517 I-0.0171 J-0.0083
X1.9906 Y2.1473 I0.0085 J0.0042 F39.4
G1 X1.9962 Y2.15
X1.9987 Y2.1513 Z-0.1397
X2.0011 Y2.1524 Z-0.1388
X2.0032 Y2.1534 Z-0.1373
X2.005 Y2.1543 Z-0.1353
X2.0064 Y2.155 Z-0.1329
X2.0072 Y2.1554 Z-0.1303
X2.0075 Y2.1555 Z-0.1275
G0 Z0.24
X2.4858 Y2.1505
Z0.12
G1 Z0.0525 F39.4
G18 G2 X2.4983 Z0.04 I0.0125 K0.
G1 X2.5045
G17 G3 X2.514 Y2.16 I0. J0.0095
X2.476 Z0.0203 I-0.019 J0. F150.
X2.514 Z0.0006 I0.019 J0.
X2.476 Z-0.0191 I-0.019 J0.
X2.514 Z-0.0387 I0.019 J0.
X2.476 Z-0.0584 I-0.019 J0.
X2.514 Z-0.0781 I0.019 J0.
X2.476 Z-0.0978 I-0.019 J0.
X2.514 Z-0.1175 I0.019 J0.
X2.476 Z-0.1372 I-0.019 J0.
X2.4779 Y2.1517 Z-0.14 I0.019 J0.
X2.5121 Y2.1683 I0.0171 J0.0083
X2.4779 Y2.1517 I-0.0171 J-0.0083
X2.4906 Y2.1473 I0.0085 J0.0042 F39.4
G1 X2.4962 Y2.15
X2.4987 Y2.1513 Z-0.1397
X2.5011 Y2.1524 Z-0.1388
X2.5032 Y2.1534 Z-0.1373
X2.505 Y2.1543 Z-0.1353
X2.5064 Y2.155 Z-0.1329
X2.5072 Y2.1554 Z-0.1303
X2.5075 Y2.1555 Z-0.1275
G0 Z0.34

(2D CONTOUR1)
M8
G0 X2.7004 Y1.565
Z0.34
Z0.24
G1 Z0.0794 F13.1
Z-0.1275
X2.7003 Y1.5653 Z-0.1303
X2.7 Y1.5662 Z-0.1329
X2.6995 Y1.5676 Z-0.1353
X2.6988 Y1.5695 Z-0.1373
X2.698 Y1.5717 Z-0.1388
X2.6971 Y1.5742 Z-0.1397
X2.6962 Y1.5768 Z-0.14
X2.692 Y1.5886 F39.4
G3 X2.676 Y1.5961 I-0.0118 J-0.0042
G2 X2.655 Y1.5925 I-0.021 J0.0589 F150.
G1 X1.25
G3 X1.0625 Y1.405 I0. J-0.1875
G1 Y0.
G2 X1.0442 Y-0.0442 I-0.0625 J0.
G1 X0.9592 Y-0.1292
G2 X0.915 Y-0.1475 I-0.0442 J0.0442
G1 X0.085
G2 X0.0408 Y-0.1292 I0. J0.0625
G1 X-0.0442 Y-0.0442
G2 X-0.0625 Y0. I0.0442 J0.0442
G1 Y2.57
G2 X-0.0442 Y2.6142 I0.0625 J0.
G1 X0.0408 Y2.6992
G2 X0.085 Y2.7175 I0.0442 J-0.0442
G1 X2.655
G2 X2.6992 Y2.6992 I0. J-0.0625
G1 X2.7842 Y2.6142
G2 X2.8025 Y2.57 I-0.0442 J-0.0442
G1 Y1.74
G2 X2.7842 Y1.6958 I-0.0625 J0.
G1 X2.6992 Y1.6108
G2 X2.676 Y1.5961 I-0.0442 J0.0442
G3 X2.6685 Y1.5802 I0.0042 J-0.0118 F39.4
G1 X2.6727 Y1.5684
X2.6736 Y1.5658 Z-0.1397
X2.6745 Y1.5633 Z-0.1388
X2.6753 Y1.5611 Z-0.1373
X2.6759 Y1.5592 Z-0.1353
X2.6764 Y1.5578 Z-0.1329
X2.6768 Y1.5569 Z-0.1303
X2.6769 Y1.5566 Z-0.1275
G0 Z0.34

M9
G28 G91 Z0.
G28 X0. Y0.
M30
