(1001)
(T1  D=0.125 CR=0. - ZMIN=-0.0794 - FLAT END MILL)
G90 G94 G91.1 G40 G49 G17
G20
G28 G91 Z0.
G90

(BORE2)
M5
M9
T1 M6G54
M8
G0 X-0.0093 Y-1.4783
G43 Z0.3 H1
Z0.0787
G1 Z0.0125 F39.4
G18 G2 X0.0032 Z0. I0.0125 K0.
G1 X0.0095
G17 G3 X0.019 Y-1.4688 I0. J0.0095
X-0.019 Z-0.0197 I-0.019 J0. F150.
X0.019 Z-0.0394 I0.019 J0.
X-0.019 Z-0.0591 I-0.019 J0.
X0.001 Y-1.4877 Z-0.0692 I0.019 J0.
X0.0189 Y-1.4668 Z-0.0794 I-0.001 J0.019
X-0.0189 Y-1.4707 I-0.0189 J-0.0019
X0.0189 Y-1.4668 I0.0189 J0.0019
X0.0085 Y-1.4583 I-0.0095 J-0.001 F39.4
G1 X0.0023 Y-1.459
X-0.0005 Y-1.4593 Z-0.0791
X-0.0031 Y-1.4595 Z-0.0781
X-0.0055 Y-1.4598 Z-0.0766
X-0.0074 Y-1.46 Z-0.0747
X-0.0089 Y-1.4601 Z-0.0723
X-0.0098 Y-1.4602 Z-0.0697
X-0.0102 Z-0.0669
G0 Z0.2
X-0.0093 Y-0.9782
Z0.0787
G1 Z0.0125 F39.4
G18 G2 X0.0032 Z0. I0.0125 K0.
G1 X0.0095
G17 G3 X0.019 Y-0.9688 I0. J0.0095
X-0.019 Z-0.0197 I-0.019 J0. F150.
X0.019 Z-0.0394 I0.019 J0.
X-0.019 Z-0.0591 I-0.019 J0.
X0.001 Y-0.9877 Z-0.0692 I0.019 J0.
X0.0189 Y-0.9668 Z-0.0794 I-0.001 J0.019
X-0.0189 Y-0.9707 I-0.0189 J-0.0019
X0.0189 Y-0.9668 I0.0189 J0.0019
X0.0085 Y-0.9583 I-0.0095 J-0.001 F39.4
G1 X0.0023 Y-0.959
X-0.0005 Y-0.9593 Z-0.0791
X-0.0031 Y-0.9595 Z-0.0781
X-0.0055 Y-0.9598 Z-0.0766
X-0.0074 Y-0.96 Z-0.0747
X-0.0089 Y-0.9601 Z-0.0723
X-0.0098 Y-0.9602 Z-0.0697
X-0.0102 Z-0.0669
G0 Z0.2
X-0.0093 Y-0.4782
Z0.0787
G1 Z0.0125 F39.4
G18 G2 X0.0032 Z0. I0.0125 K0.
G1 X0.0095
G17 G3 X0.019 Y-0.4688 I0. J0.0095
X-0.019 Z-0.0197 I-0.019 J0. F150.
X0.019 Z-0.0394 I0.019 J0.
X-0.019 Z-0.0591 I-0.019 J0.
X0.001 Y-0.4877 Z-0.0692 I0.019 J0.
X0.0189 Y-0.4668 Z-0.0794 I-0.001 J0.019
X-0.0189 Y-0.4707 I-0.0189 J-0.0019
X0.0189 Y-0.4668 I0.0189 J0.0019
X0.0085 Y-0.4583 I-0.0095 J-0.001 F39.4
G1 X0.0023 Y-0.459
X-0.0005 Y-0.4593 Z-0.0791
X-0.0031 Y-0.4595 Z-0.0781
X-0.0055 Y-0.4598 Z-0.0766
X-0.0074 Y-0.46 Z-0.0747
X-0.0089 Y-0.4601 Z-0.0723
X-0.0098 Y-0.4602 Z-0.0697
X-0.0102 Z-0.0669
G0 Z0.2
X-0.0093 Y0.0218
Z0.0787
G1 Z0.0125 F39.4
G18 G2 X0.0032 Z0. I0.0125 K0.
G1 X0.0095
G17 G3 X0.019 Y0.0312 I0. J0.0095
X-0.019 Z-0.0197 I-0.019 J0. F150.
X0.019 Z-0.0394 I0.019 J0.
X-0.019 Z-0.0591 I-0.019 J0.
X0.001 Y0.0123 Z-0.0692 I0.019 J0.
X0.0189 Y0.0332 Z-0.0794 I-0.001 J0.019
X-0.0189 Y0.0293 I-0.0189 J-0.0019
X0.0189 Y0.0332 I0.0189 J0.0019
X0.0085 Y0.0417 I-0.0095 J-0.001 F39.4
G1 X0.0023 Y0.041
X-0.0005 Y0.0407 Z-0.0791
X-0.0031 Y0.0405 Z-0.0781
X-0.0055 Y0.0402 Z-0.0766
X-0.0074 Y0.04 Z-0.0747
X-0.0089 Y0.0399 Z-0.0723
X-0.0098 Y0.0398 Z-0.0697
X-0.0102 Z-0.0669
G0 Z0.2
X0.7157 Y0.8968
Z0.0787
G1 Z0.0125 F39.4
G18 G2 X0.7282 Z0. I0.0125 K0.
G1 X0.7345
G17 G3 X0.744 Y0.9062 I0. J0.0095
X0.706 Z-0.0197 I-0.019 J0. F150.
X0.744 Z-0.0394 I0.019 J0.
X0.706 Z-0.0591 I-0.019 J0.
X0.726 Y0.8873 Z-0.0692 I0.019 J0.
X0.7439 Y0.9082 Z-0.0794 I-0.001 J0.019
X0.7061 Y0.9043 I-0.0189 J-0.0019
X0.7439 Y0.9082 I0.0189 J0.0019
X0.7335 Y0.9167 I-0.0095 J-0.001 F39.4
G1 X0.7273 Y0.916
X0.7245 Y0.9157 Z-0.0791
X0.7219 Y0.9155 Z-0.0781
X0.7195 Y0.9152 Z-0.0766
X0.7176 Y0.915 Z-0.0747
X0.7161 Y0.9149 Z-0.0723
X0.7152 Y0.9148 Z-0.0697
X0.7148 Z-0.0669
G0 Z0.2
X0.3533 Y1.5246
Z0.0787
G1 Z0.0125 F39.4
G18 G2 X0.3657 Z0. I0.0125 K0.
G1 X0.372
G17 G3 X0.3815 Y1.5341 I0. J0.0095
X0.3435 Z-0.0197 I-0.019 J0. F150.
X0.3815 Z-0.0394 I0.019 J0.
X0.3435 Z-0.0591 I-0.019 J0.
X0.3635 Y1.5151 Z-0.0692 I0.019 J0.
X0.3814 Y1.536 Z-0.0794 I-0.001 J0.019
X0.3436 Y1.5322 I-0.0189 J-0.0019
X0.3814 Y1.536 I0.0189 J0.0019
X0.371 Y1.5445 I-0.0095 J-0.001 F39.4
G1 X0.3648 Y1.5439
X0.362 Y1.5436 Z-0.0791
X0.3594 Y1.5434 Z-0.0781
X0.357 Y1.5431 Z-0.0766
X0.3551 Y1.5429 Z-0.0747
X0.3536 Y1.5428 Z-0.0723
X0.3527 Y1.5427 Z-0.0697
X0.3523 Y1.5426 Z-0.0669
G0 Z0.2
X-0.3717 Y1.5246
Z0.0787
G1 Z0.0125 F39.4
G18 G2 X-0.3593 Z0. I0.0125 K0.
G1 X-0.353
G17 G3 X-0.3435 Y1.5341 I0. J0.0095
X-0.3815 Z-0.0197 I-0.019 J0. F150.
X-0.3435 Z-0.0394 I0.019 J0.
X-0.3815 Z-0.0591 I-0.019 J0.
X-0.3615 Y1.5151 Z-0.0692 I0.019 J0.
X-0.3436 Y1.536 Z-0.0794 I-0.001 J0.019
X-0.3814 Y1.5322 I-0.0189 J-0.0019
X-0.3436 Y1.536 I0.0189 J0.0019
X-0.354 Y1.5445 I-0.0095 J-0.001 F39.4
G1 X-0.3602 Y1.5439
X-0.363 Y1.5436 Z-0.0791
X-0.3656 Y1.5434 Z-0.0781
X-0.368 Y1.5431 Z-0.0766
X-0.3699 Y1.5429 Z-0.0747
X-0.3714 Y1.5428 Z-0.0723
X-0.3723 Y1.5427 Z-0.0697
X-0.3727 Y1.5426 Z-0.0669
G0 Z0.2
X-0.7343 Y0.8968
Z0.0787
G1 Z0.0125 F39.4
G18 G2 X-0.7218 Z0. I0.0125 K0.
G1 X-0.7155
G17 G3 X-0.706 Y0.9062 I0. J0.0095
X-0.744 Z-0.0197 I-0.019 J0. F150.
X-0.706 Z-0.0394 I0.019 J0.
X-0.744 Z-0.0591 I-0.019 J0.
X-0.724 Y0.8873 Z-0.0692 I0.019 J0.
X-0.7061 Y0.9082 Z-0.0794 I-0.001 J0.019
X-0.7439 Y0.9043 I-0.0189 J-0.0019
X-0.7061 Y0.9082 I0.0189 J0.0019
X-0.7165 Y0.9167 I-0.0095 J-0.001 F39.4
G1 X-0.7227 Y0.916
X-0.7255 Y0.9157 Z-0.0791
X-0.7281 Y0.9155 Z-0.0781
X-0.7305 Y0.9152 Z-0.0766
X-0.7324 Y0.915 Z-0.0747
X-0.7339 Y0.9149 Z-0.0723
X-0.7348 Y0.9148 Z-0.0697
X-0.7352 Z-0.0669
G0 Z0.3

(CIRCULAR1)
M8
G0 X0.4688 Y0.8938
Z0.3
Z0.0006
G1 Z-0.0669 F39.4
G18 G2 X0.4813 Z-0.0794 I0.0125 K0.
G1 X0.4875
G17 G3 X0.5 Y0.9062 I0. J0.0125
X-0.5 I-0.5 J0. F150.
X0.5 I0.5 J0.
X0.4875 Y0.9188 I-0.0125 J0. F39.4
G1 X0.4813
G18 G3 X0.4688 Z-0.0669 I0. K0.0125
G0 Z0.3
G17

(2D CONTOUR1)
M8
G0 X-0.0125 Y1.8188
Z0.3
Z0.2
G1 Z0.0394 F13.1
Z-0.0669
G19 G2 Y1.8063 Z-0.0794 J-0.0125 K0.
G1 Y1.7938 F39.4
G17 G3 X0. Y1.7813 I0.0125 J0.
G1 X0.4752 F150.
G2 X0.5194 Y1.7629 I0. J-0.0625
G1 X0.5795 Y1.7028
G2 X0.5892 Y1.6903 I-0.0442 J-0.0442
G1 X1.0099 Y0.9735
G2 X1.0185 Y0.9419 I-0.0539 J-0.0316
G1 Y0.8569
G2 X1.0135 Y0.8325 I-0.0625 J0.
G1 X0.5774 Y-0.1964
G3 X0.5625 Y-0.2696 I0.1726 J-0.0732
G1 Y-1.6586
G2 X0.5442 Y-1.7028 I-0.0625 J0.
G1 X0.4841 Y-1.7629
G2 X0.4399 Y-1.7813 I-0.0442 J0.0442
G1 X-0.4399
G2 X-0.4841 Y-1.7629 I0. J0.0625
G1 X-0.5442 Y-1.7028
G2 X-0.5625 Y-1.6586 I0.0442 J0.0442
G1 Y-0.2696
G3 X-0.5774 Y-0.1964 I-0.1875 J0.
G1 X-1.0135 Y0.8325
G2 X-1.0185 Y0.8569 I0.0575 J0.0244
G1 Y0.9419
G2 X-1.0099 Y0.9735 I0.0625 J0.
G1 X-0.5892 Y1.6903
G2 X-0.5795 Y1.7028 I0.0539 J-0.0316
G1 X-0.5194 Y1.7629
G2 X-0.4752 Y1.7813 I0.0442 J-0.0442
G1 X0.
G3 X0.0125 Y1.7938 I0. J0.0125 F39.4
G1 Y1.8063
G19 G3 Y1.8188 Z-0.0669 J0. K0.0125
G0 Z0.3
G17

M9
G28 G91 Z0.
G28 X0. Y0.
M30
