(VEXLGUSSET)
(ORIGIN AT LEFT BOTTOM CORNER)
(T1  D=0.125 CR=0. - ZMIN=-0.09 - FLAT END MILL)
G90 G94 G91.1 G40 G49 G17
G20
G28 G91 Z0.
G90

(BORE2)
M5
M9
T1 M6
G54
M8
G0 X0.4008 Y0.2355
G43 Z0.64 H1
Z0.08
G1 Z0.0125 F39.4
G18 G2 X0.4132 Z0. I0.0125 K0.
G1 X0.4195
G17 G3 X0.429 Y0.245 I0. J0.0095
X0.391 Z-0.0197 I-0.019 J0. F15.
X0.429 Z-0.0394 I0.019 J0.
X0.391 Z-0.0591 I-0.019 J0.
X0.429 Z-0.0787 I0.019 J0.
X0.4057 Y0.2635 Z-0.09 I-0.019 J0.
X0.4143 Y0.2265 I0.0043 J-0.0185
X0.4057 Y0.2635 I-0.0043 J0.0185
X0.3986 Y0.2521 I0.0021 J-0.0093 F39.4
G1 X0.4 Y0.246
X0.4006 Y0.2433 Z-0.0897
X0.4012 Y0.2408 Z-0.0888
X0.4018 Y0.2384 Z-0.0873
X0.4022 Y0.2365 Z-0.0853
X0.4025 Y0.2351 Z-0.0829
X0.4027 Y0.2342 Z-0.0803
X0.4028 Y0.2339 Z-0.0775
G0 Z0.24
X0.4008 Y0.7355
Z0.08
G1 Z0.0125 F39.4
G18 G2 X0.4132 Z0. I0.0125 K0.
G1 X0.4195
G17 G3 X0.429 Y0.745 I0. J0.0095
X0.391 Z-0.0197 I-0.019 J0. F15.
X0.429 Z-0.0394 I0.019 J0.
X0.391 Z-0.0591 I-0.019 J0.
X0.429 Z-0.0787 I0.019 J0.
X0.4057 Y0.7635 Z-0.09 I-0.019 J0.
X0.4143 Y0.7265 I0.0043 J-0.0185
X0.4057 Y0.7635 I-0.0043 J0.0185
X0.3986 Y0.7521 I0.0021 J-0.0093 F39.4
G1 X0.4 Y0.746
X0.4006 Y0.7433 Z-0.0897
X0.4012 Y0.7408 Z-0.0888
X0.4018 Y0.7384 Z-0.0873
X0.4022 Y0.7365 Z-0.0853
X0.4025 Y0.7351 Z-0.0829
X0.4027 Y0.7342 Z-0.0803
X0.4028 Y0.7339 Z-0.0775
G0 Z0.24
X0.4008 Y1.2355
Z0.08
G1 Z0.0125 F39.4
G18 G2 X0.4132 Z0. I0.0125 K0.
G1 X0.4195
G17 G3 X0.429 Y1.245 I0. J0.0095
X0.391 Z-0.0197 I-0.019 J0. F15.
X0.429 Z-0.0394 I0.019 J0.
X0.391 Z-0.0591 I-0.019 J0.
X0.429 Z-0.0787 I0.019 J0.
X0.4057 Y1.2635 Z-0.09 I-0.019 J0.
X0.4143 Y1.2265 I0.0043 J-0.0185
X0.4057 Y1.2635 I-0.0043 J0.0185
X0.3986 Y1.2521 I0.0021 J-0.0093 F39.4
G1 X0.4 Y1.246
X0.4006 Y1.2433 Z-0.0897
X0.4012 Y1.2408 Z-0.0888
X0.4018 Y1.2384 Z-0.0873
X0.4022 Y1.2365 Z-0.0853
X0.4025 Y1.2351 Z-0.0829
X0.4027 Y1.2342 Z-0.0803
X0.4028 Y1.2339 Z-0.0775
G0 Z0.24
X0.4008 Y1.7355
Z0.08
G1 Z0.0125 F39.4
G18 G2 X0.4132 Z0. I0.0125 K0.
G1 X0.4195
G17 G3 X0.429 Y1.745 I0. J0.0095
X0.391 Z-0.0197 I-0.019 J0. F15.
X0.429 Z-0.0394 I0.019 J0.
X0.391 Z-0.0591 I-0.019 J0.
X0.429 Z-0.0787 I0.019 J0.
X0.4057 Y1.7635 Z-0.09 I-0.019 J0.
X0.4143 Y1.7265 I0.0043 J-0.0185
X0.4057 Y1.7635 I-0.0043 J0.0185
X0.3986 Y1.7521 I0.0021 J-0.0093 F39.4
G1 X0.4 Y1.746
X0.4006 Y1.7433 Z-0.0897
X0.4012 Y1.7408 Z-0.0888
X0.4018 Y1.7384 Z-0.0873
X0.4022 Y1.7365 Z-0.0853
X0.4025 Y1.7351 Z-0.0829
X0.4027 Y1.7342 Z-0.0803
X0.4028 Y1.7339 Z-0.0775
G0 Z0.24
X0.4008 Y2.2355
Z0.08
G1 Z0.0125 F39.4
G18 G2 X0.4132 Z0. I0.0125 K0.
G1 X0.4195
G17 G3 X0.429 Y2.245 I0. J0.0095
X0.391 Z-0.0197 I-0.019 J0. F15.
X0.429 Z-0.0394 I0.019 J0.
X0.391 Z-0.0591 I-0.019 J0.
X0.429 Z-0.0787 I0.019 J0.
X0.4057 Y2.2635 Z-0.09 I-0.019 J0.
X0.4143 Y2.2265 I0.0043 J-0.0185
X0.4057 Y2.2635 I-0.0043 J0.0185
X0.3986 Y2.2521 I0.0021 J-0.0093 F39.4
G1 X0.4 Y2.246
X0.4006 Y2.2433 Z-0.0897
X0.4012 Y2.2408 Z-0.0888
X0.4018 Y2.2384 Z-0.0873
X0.4022 Y2.2365 Z-0.0853
X0.4025 Y2.2351 Z-0.0829
X0.4027 Y2.2342 Z-0.0803
X0.4028 Y2.2339 Z-0.0775
G0 Z0.24
X0.9007 Y2.2355
Z0.08
G1 Z0.0125 F39.4
G18 G2 X0.9133 Z0. I0.0125 K0.
G1 X0.9195
G17 G3 X0.929 Y2.245 I0. J0.0095
X0.891 Z-0.0197 I-0.019 J0. F15.
X0.929 Z-0.0394 I0.019 J0.
X0.891 Z-0.0591 I-0.019 J0.
X0.929 Z-0.0787 I0.019 J0.
X0.9057 Y2.2635 Z-0.09 I-0.019 J0.
X0.9143 Y2.2265 I0.0043 J-0.0185
X0.9057 Y2.2635 I-0.0043 J0.0185
X0.8986 Y2.2521 I0.0021 J-0.0093 F39.4
G1 X0.9 Y2.246
X0.9006 Y2.2433 Z-0.0897
X0.9012 Y2.2408 Z-0.0888
X0.9018 Y2.2384 Z-0.0873
X0.9022 Y2.2365 Z-0.0853
X0.9025 Y2.2351 Z-0.0829
X0.9027 Y2.2342 Z-0.0803
X0.9028 Y2.2339 Z-0.0775
G0 Z0.24
X1.4007 Y2.2355
Z0.08
G1 Z0.0125 F39.4
G18 G2 X1.4132 Z0. I0.0125 K0.
G1 X1.4195
G17 G3 X1.429 Y2.245 I0. J0.0095
X1.391 Z-0.0197 I-0.019 J0. F15.
X1.429 Z-0.0394 I0.019 J0.
X1.391 Z-0.0591 I-0.019 J0.
X1.429 Z-0.0787 I0.019 J0.
X1.4057 Y2.2635 Z-0.09 I-0.019 J0.
X1.4143 Y2.2265 I0.0043 J-0.0185
X1.4057 Y2.2635 I-0.0043 J0.0185
X1.3986 Y2.2521 I0.0021 J-0.0093 F39.4
G1 X1.4 Y2.246
X1.4006 Y2.2433 Z-0.0897
X1.4012 Y2.2408 Z-0.0888
X1.4018 Y2.2384 Z-0.0873
X1.4022 Y2.2365 Z-0.0853
X1.4025 Y2.2351 Z-0.0829
X1.4027 Y2.2342 Z-0.0803
X1.4028 Y2.2339 Z-0.0775
G0 Z0.24
X1.9007 Y2.2355
Z0.08
G1 Z0.0125 F39.4
G18 G2 X1.9132 Z0. I0.0125 K0.
G1 X1.9195
G17 G3 X1.929 Y2.245 I0. J0.0095
X1.891 Z-0.0197 I-0.019 J0. F15.
X1.929 Z-0.0394 I0.019 J0.
X1.891 Z-0.0591 I-0.019 J0.
X1.929 Z-0.0787 I0.019 J0.
X1.9057 Y2.2635 Z-0.09 I-0.019 J0.
X1.9143 Y2.2265 I0.0043 J-0.0185
X1.9057 Y2.2635 I-0.0043 J0.0185
X1.8986 Y2.2521 I0.0021 J-0.0093 F39.4
G1 X1.9 Y2.246
X1.9006 Y2.2433 Z-0.0897
X1.9012 Y2.2408 Z-0.0888
X1.9018 Y2.2384 Z-0.0873
X1.9022 Y2.2365 Z-0.0853
X1.9025 Y2.2351 Z-0.0829
X1.9027 Y2.2342 Z-0.0803
X1.9028 Y2.2339 Z-0.0775
G0 Z0.24
X2.4007 Y2.2355
Z0.08
G1 Z0.0125 F39.4
G18 G2 X2.4133 Z0. I0.0125 K0.
G1 X2.4195
G17 G3 X2.429 Y2.245 I0. J0.0095
X2.391 Z-0.0197 I-0.019 J0. F15.
X2.429 Z-0.0394 I0.019 J0.
X2.391 Z-0.0591 I-0.019 J0.
X2.429 Z-0.0787 I0.019 J0.
X2.4057 Y2.2635 Z-0.09 I-0.019 J0.
X2.4143 Y2.2265 I0.0043 J-0.0185
X2.4057 Y2.2635 I-0.0043 J0.0185
X2.3986 Y2.2521 I0.0021 J-0.0093 F39.4
G1 X2.4 Y2.246
X2.4006 Y2.2433 Z-0.0897
X2.4012 Y2.2408 Z-0.0888
X2.4018 Y2.2384 Z-0.0873
X2.4022 Y2.2365 Z-0.0853
X2.4025 Y2.2351 Z-0.0829
X2.4027 Y2.2342 Z-0.0803
X2.4028 Y2.2339 Z-0.0775
G0 Z0.64

(2D CONTOUR2)
M8
G0 X0.9945 Y0.0231
Z0.34
Z0.24
G1 Z0.0794 F13.1
Z-0.0775
X0.9943 Y0.0233 Z-0.0803
X0.9937 Y0.024 Z-0.0829
X0.9926 Y0.0251 Z-0.0853
X0.9912 Y0.0265 Z-0.0873
X0.9895 Y0.0281 Z-0.0888
X0.9877 Y0.03 Z-0.0897
X0.9857 Y0.032 Z-0.09
X0.9769 Y0.0408 F39.4
G3 X0.9592 I-0.0088 J-0.0088
G1 X0.8742 Y-0.0442 F15.
G2 X0.83 Y-0.0625 I-0.0442 J0.0442
G1 X0.
G2 X-0.0442 Y-0.0442 I0. J0.0625
G1 X-0.1292 Y0.0408
G2 X-0.1475 Y0.085 I0.0442 J0.0442
G1 Y2.655
G2 X-0.1292 Y2.6992 I0.0625 J0.
G1 X-0.0442 Y2.7842
G2 X0. Y2.8025 I0.0442 J-0.0442
G1 X2.57
G2 X2.6142 Y2.7842 I0. J-0.0625
G1 X2.6992 Y2.6992
G2 X2.7175 Y2.655 I-0.0442 J-0.0442
G1 Y1.825
G2 X2.6992 Y1.7808 I-0.0625 J0.
G1 X2.6142 Y1.6958
G2 X2.57 Y1.6775 I-0.0442 J0.0442
G1 X1.165
G3 X0.9775 Y1.49 I0. J-0.1875
G1 Y0.085
G2 X0.9592 Y0.0408 I-0.0625 J0.
G3 Y0.0231 I0.0088 J-0.0088 F39.4
G1 X0.968 Y0.0143
X0.97 Y0.0123 Z-0.0897
X0.9719 Y0.0105 Z-0.0888
X0.9735 Y0.0088 Z-0.0873
X0.9749 Y0.0074 Z-0.0853
X0.976 Y0.0063 Z-0.0829
X0.9767 Y0.0057 Z-0.0803
X0.9769 Y0.0055 Z-0.0775
G0 Z0.34

M9
G28 G91 Z0.
G28 X0. Y0.
M30
