(VEXPLUSGUSSET)
(T1  D=0.125 CR=0. - ZMIN=0. - FLAT END MILL)
G90 G94 G91.1 G40 G49 G17
G20
G28 G91 Z0.
G90

(BORE1)
M5
M9
T1 M6
G54
M8
G0 X1.9907 Y-0.0095
G43 Z0.73 H1
Z0.17
G1 Z0.1025 F39.4
G18 G2 X2.0032 Z0.09 I0.0125 K0.
G1 X2.0095
G17 G3 X2.019 Y0. I0. J0.0095
X1.981 Z0.0703 I-0.019 J0. F15.
X2.019 Z0.0506 I0.019 J0.
X1.981 Z0.0309 I-0.019 J0.
X2.019 Z0.0113 I0.019 J0.
X1.9957 Y0.0185 Z0. I-0.019 J0.
X2.0043 Y-0.0185 I0.0043 J-0.0185
X1.9957 Y0.0185 I-0.0043 J0.0185
X1.9886 Y0.0071 I0.0021 J-0.0093 F39.4
G1 X1.99 Y0.001
X1.9906 Y-0.0017 Z0.0003
X1.9912 Y-0.0042 Z0.0012
X1.9918 Y-0.0066 Z0.0027
X1.9922 Y-0.0085 Z0.0047
X1.9925 Y-0.0099 Z0.0071
X1.9927 Y-0.0108 Z0.0097
X1.9928 Y-0.0111 Z0.0125
G0 Z0.33
X1.4908 Y-0.0095
Z0.17
G1 Z0.1025 F39.4
G18 G2 X1.5032 Z0.09 I0.0125 K0.
G1 X1.5095
G17 G3 X1.519 Y0. I0. J0.0095
X1.481 Z0.0703 I-0.019 J0. F15.
X1.519 Z0.0506 I0.019 J0.
X1.481 Z0.0309 I-0.019 J0.
X1.519 Z0.0113 I0.019 J0.
X1.4957 Y0.0185 Z0. I-0.019 J0.
X1.5043 Y-0.0185 I0.0043 J-0.0185
X1.4957 Y0.0185 I-0.0043 J0.0185
X1.4886 Y0.0071 I0.0021 J-0.0093 F39.4
G1 X1.49 Y0.001
X1.4906 Y-0.0017 Z0.0003
X1.4912 Y-0.0042 Z0.0012
X1.4918 Y-0.0066 Z0.0027
X1.4922 Y-0.0085 Z0.0047
X1.4925 Y-0.0099 Z0.0071
X1.4927 Y-0.0108 Z0.0097
X1.4928 Y-0.0111 Z0.0125
G0 Z0.33
X0.9908 Y-0.0095
Z0.17
G1 Z0.1025 F39.4
G18 G2 X1.0032 Z0.09 I0.0125 K0.
G1 X1.0095
G17 G3 X1.019 Y0. I0. J0.0095
X0.981 Z0.0703 I-0.019 J0. F15.
X1.019 Z0.0506 I0.019 J0.
X0.981 Z0.0309 I-0.019 J0.
X1.019 Z0.0113 I0.019 J0.
X0.9957 Y0.0185 Z0. I-0.019 J0.
X1.0043 Y-0.0185 I0.0043 J-0.0185
X0.9957 Y0.0185 I-0.0043 J0.0185
X0.9886 Y0.0071 I0.0021 J-0.0093 F39.4
G1 X0.99 Y0.001
X0.9906 Y-0.0017 Z0.0003
X0.9912 Y-0.0042 Z0.0012
X0.9918 Y-0.0066 Z0.0027
X0.9922 Y-0.0085 Z0.0047
X0.9925 Y-0.0099 Z0.0071
X0.9927 Y-0.0108 Z0.0097
X0.9928 Y-0.0111 Z0.0125
G0 Z0.33
X0.4907 Y-0.0095
Z0.17
G1 Z0.1025 F39.4
G18 G2 X0.5032 Z0.09 I0.0125 K0.
G1 X0.5095
G17 G3 X0.519 Y0. I0. J0.0095
X0.481 Z0.0703 I-0.019 J0. F15.
X0.519 Z0.0506 I0.019 J0.
X0.481 Z0.0309 I-0.019 J0.
X0.519 Z0.0113 I0.019 J0.
X0.4957 Y0.0185 Z0. I-0.019 J0.
X0.5043 Y-0.0185 I0.0043 J-0.0185
X0.4957 Y0.0185 I-0.0043 J0.0185
X0.4886 Y0.0071 I0.0021 J-0.0093 F39.4
G1 X0.49 Y0.001
X0.4906 Y-0.0017 Z0.0003
X0.4912 Y-0.0042 Z0.0012
X0.4918 Y-0.0066 Z0.0027
X0.4922 Y-0.0085 Z0.0047
X0.4925 Y-0.0099 Z0.0071
X0.4927 Y-0.0108 Z0.0097
X0.4928 Y-0.0111 Z0.0125
G0 Z0.33
X-0.0093 Y-0.0095
Z0.17
G1 Z0.1025 F39.4
G18 G2 X0.0032 Z0.09 I0.0125 K0.
G1 X0.0095
G17 G3 X0.019 Y0. I0. J0.0095
X-0.019 Z0.0703 I-0.019 J0. F15.
X0.019 Z0.0506 I0.019 J0.
X-0.019 Z0.0309 I-0.019 J0.
X0.019 Z0.0113 I0.019 J0.
X-0.0043 Y0.0185 Z0. I-0.019 J0.
X0.0043 Y-0.0185 I0.0043 J-0.0185
X-0.0043 Y0.0185 I-0.0043 J0.0185
X-0.0114 Y0.0071 I0.0021 J-0.0093 F39.4
G1 X-0.01 Y0.001
X-0.0094 Y-0.0017 Z0.0003
X-0.0088 Y-0.0042 Z0.0012
X-0.0082 Y-0.0066 Z0.0027
X-0.0078 Y-0.0085 Z0.0047
X-0.0075 Y-0.0099 Z0.0071
X-0.0073 Y-0.0108 Z0.0097
X-0.0072 Y-0.0111 Z0.0125
G0 Z0.33
X-0.4907 Y0.0095
Z0.17
G1 Z0.1025 F39.4
G18 G3 X-0.5032 Z0.09 I-0.0125 K0.
G1 X-0.5095
G17 G3 X-0.519 Y0. I0. J-0.0095
X-0.481 Z0.0703 I0.019 J0. F15.
X-0.519 Z0.0506 I-0.019 J0.
X-0.481 Z0.0309 I0.019 J0.
X-0.519 Z0.0113 I-0.019 J0.
X-0.4957 Y-0.0185 Z0. I0.019 J0.
X-0.5043 Y0.0185 I-0.0043 J0.0185
X-0.4957 Y-0.0185 I0.0043 J-0.0185
X-0.4886 Y-0.0071 I-0.0021 J0.0093 F39.4
G1 X-0.49 Y-0.001
X-0.4906 Y0.0017 Z0.0003
X-0.4912 Y0.0042 Z0.0012
X-0.4918 Y0.0066 Z0.0027
X-0.4922 Y0.0085 Z0.0047
X-0.4925 Y0.0099 Z0.0071
X-0.4927 Y0.0108 Z0.0097
X-0.4928 Y0.0111 Z0.0125
G0 Z0.33
X-0.9908 Y0.0095
Z0.17
G1 Z0.1025 F39.4
G18 G3 X-1.0032 Z0.09 I-0.0125 K0.
G1 X-1.0095
G17 G3 X-1.019 Y0. I0. J-0.0095
X-0.981 Z0.0703 I0.019 J0. F15.
X-1.019 Z0.0506 I-0.019 J0.
X-0.981 Z0.0309 I0.019 J0.
X-1.019 Z0.0113 I-0.019 J0.
X-0.9957 Y-0.0185 Z0. I0.019 J0.
X-1.0043 Y0.0185 I-0.0043 J0.0185
X-0.9957 Y-0.0185 I0.0043 J-0.0185
X-0.9886 Y-0.0071 I-0.0021 J0.0093 F39.4
G1 X-0.99 Y-0.001
X-0.9906 Y0.0017 Z0.0003
X-0.9912 Y0.0042 Z0.0012
X-0.9918 Y0.0066 Z0.0027
X-0.9922 Y0.0085 Z0.0047
X-0.9925 Y0.0099 Z0.0071
X-0.9927 Y0.0108 Z0.0097
X-0.9928 Y0.0111 Z0.0125
G0 Z0.33
X-1.4908 Y0.0095
Z0.17
G1 Z0.1025 F39.4
G18 G3 X-1.5032 Z0.09 I-0.0125 K0.
G1 X-1.5095
G17 G3 X-1.519 Y0. I0. J-0.0095
X-1.481 Z0.0703 I0.019 J0. F15.
X-1.519 Z0.0506 I-0.019 J0.
X-1.481 Z0.0309 I0.019 J0.
X-1.519 Z0.0113 I-0.019 J0.
X-1.4957 Y-0.0185 Z0. I0.019 J0.
X-1.5043 Y0.0185 I-0.0043 J0.0185
X-1.4957 Y-0.0185 I0.0043 J-0.0185
X-1.4886 Y-0.0071 I-0.0021 J0.0093 F39.4
G1 X-1.49 Y-0.001
X-1.4906 Y0.0017 Z0.0003
X-1.4912 Y0.0042 Z0.0012
X-1.4918 Y0.0066 Z0.0027
X-1.4922 Y0.0085 Z0.0047
X-1.4925 Y0.0099 Z0.0071
X-1.4927 Y0.0108 Z0.0097
X-1.4928 Y0.0111 Z0.0125
G0 Z0.33
X-1.9907 Y0.0095
Z0.17
G1 Z0.1025 F39.4
G18 G3 X-2.0032 Z0.09 I-0.0125 K0.
G1 X-2.0095
G17 G3 X-2.019 Y0. I0. J-0.0095
X-1.981 Z0.0703 I0.019 J0. F15.
X-2.019 Z0.0506 I-0.019 J0.
X-1.981 Z0.0309 I0.019 J0.
X-2.019 Z0.0113 I-0.019 J0.
X-1.9957 Y-0.0185 Z0. I0.019 J0.
X-2.0043 Y0.0185 I-0.0043 J0.0185
X-1.9957 Y-0.0185 I0.0043 J-0.0185
X-1.9886 Y-0.0071 I-0.0021 J0.0093 F39.4
G1 X-1.99 Y-0.001
X-1.9906 Y0.0017 Z0.0003
X-1.9912 Y0.0042 Z0.0012
X-1.9918 Y0.0066 Z0.0027
X-1.9922 Y0.0085 Z0.0047
X-1.9925 Y0.0099 Z0.0071
X-1.9927 Y0.0108 Z0.0097
X-1.9928 Y0.0111 Z0.0125
G0 Z0.33
X-0.0093 Y-2.0095
Z0.17
G1 Z0.1025 F39.4
G18 G2 X0.0032 Z0.09 I0.0125 K0.
G1 X0.0095
G17 G3 X0.019 Y-2. I0. J0.0095
X-0.019 Z0.0703 I-0.019 J0. F15.
X0.019 Z0.0506 I0.019 J0.
X-0.019 Z0.0309 I-0.019 J0.
X0.019 Z0.0113 I0.019 J0.
X-0.0043 Y-1.9815 Z0. I-0.019 J0.
X0.0043 Y-2.0185 I0.0043 J-0.0185
X-0.0043 Y-1.9815 I-0.0043 J0.0185
X-0.0114 Y-1.9929 I0.0021 J-0.0093 F39.4
G1 X-0.01 Y-1.999
X-0.0094 Y-2.0017 Z0.0003
X-0.0088 Y-2.0042 Z0.0012
X-0.0082 Y-2.0066 Z0.0027
X-0.0078 Y-2.0085 Z0.0047
X-0.0075 Y-2.0099 Z0.0071
X-0.0073 Y-2.0108 Z0.0097
X-0.0072 Y-2.0111 Z0.0125
G0 Z0.33
X-0.0093 Y-1.5095
Z0.17
G1 Z0.1025 F39.4
G18 G2 X0.0032 Z0.09 I0.0125 K0.
G1 X0.0095
G17 G3 X0.019 Y-1.5 I0. J0.0095
X-0.019 Z0.0703 I-0.019 J0. F15.
X0.019 Z0.0506 I0.019 J0.
X-0.019 Z0.0309 I-0.019 J0.
X0.019 Z0.0113 I0.019 J0.
X-0.0043 Y-1.4815 Z0. I-0.019 J0.
X0.0043 Y-1.5185 I0.0043 J-0.0185
X-0.0043 Y-1.4815 I-0.0043 J0.0185
X-0.0114 Y-1.4929 I0.0021 J-0.0093 F39.4
G1 X-0.01 Y-1.499
X-0.0094 Y-1.5017 Z0.0003
X-0.0088 Y-1.5042 Z0.0012
X-0.0082 Y-1.5066 Z0.0027
X-0.0078 Y-1.5085 Z0.0047
X-0.0075 Y-1.5099 Z0.0071
X-0.0073 Y-1.5108 Z0.0097
X-0.0072 Y-1.5111 Z0.0125
G0 Z0.33
X-0.0093 Y-1.0095
Z0.17
G1 Z0.1025 F39.4
G18 G2 X0.0032 Z0.09 I0.0125 K0.
G1 X0.0095
G17 G3 X0.019 Y-1. I0. J0.0095
X-0.019 Z0.0703 I-0.019 J0. F15.
X0.019 Z0.0506 I0.019 J0.
X-0.019 Z0.0309 I-0.019 J0.
X0.019 Z0.0113 I0.019 J0.
X-0.0043 Y-0.9815 Z0. I-0.019 J0.
X0.0043 Y-1.0185 I0.0043 J-0.0185
X-0.0043 Y-0.9815 I-0.0043 J0.0185
X-0.0114 Y-0.9929 I0.0021 J-0.0093 F39.4
G1 X-0.01 Y-0.999
X-0.0094 Y-1.0017 Z0.0003
X-0.0088 Y-1.0042 Z0.0012
X-0.0082 Y-1.0066 Z0.0027
X-0.0078 Y-1.0085 Z0.0047
X-0.0075 Y-1.0099 Z0.0071
X-0.0073 Y-1.0108 Z0.0097
X-0.0072 Y-1.0111 Z0.0125
G0 Z0.33
X-0.0093 Y-0.5095
Z0.17
G1 Z0.1025 F39.4
G18 G2 X0.0032 Z0.09 I0.0125 K0.
G1 X0.0095
G17 G3 X0.019 Y-0.5 I0. J0.0095
X-0.019 Z0.0703 I-0.019 J0. F15.
X0.019 Z0.0506 I0.019 J0.
X-0.019 Z0.0309 I-0.019 J0.
X0.019 Z0.0113 I0.019 J0.
X-0.0043 Y-0.4815 Z0. I-0.019 J0.
X0.0043 Y-0.5185 I0.0043 J-0.0185
X-0.0043 Y-0.4815 I-0.0043 J0.0185
X-0.0114 Y-0.4929 I0.0021 J-0.0093 F39.4
G1 X-0.01 Y-0.499
X-0.0094 Y-0.5017 Z0.0003
X-0.0088 Y-0.5042 Z0.0012
X-0.0082 Y-0.5066 Z0.0027
X-0.0078 Y-0.5085 Z0.0047
X-0.0075 Y-0.5099 Z0.0071
X-0.0073 Y-0.5108 Z0.0097
X-0.0072 Y-0.5111 Z0.0125
G0 Z0.33
X0.0093 Y0.5095
Z0.17
G1 Z0.1025 F39.4
G18 G3 X-0.0032 Z0.09 I-0.0125 K0.
G1 X-0.0095
G17 G3 X-0.019 Y0.5 I0. J-0.0095
X0.019 Z0.0703 I0.019 J0. F15.
X-0.019 Z0.0506 I-0.019 J0.
X0.019 Z0.0309 I0.019 J0.
X-0.019 Z0.0113 I-0.019 J0.
X0.0043 Y0.4815 Z0. I0.019 J0.
X-0.0043 Y0.5185 I-0.0043 J0.0185
X0.0043 Y0.4815 I0.0043 J-0.0185
X0.0114 Y0.4929 I-0.0021 J0.0093 F39.4
G1 X0.01 Y0.499
X0.0094 Y0.5017 Z0.0003
X0.0088 Y0.5042 Z0.0012
X0.0082 Y0.5066 Z0.0027
X0.0078 Y0.5085 Z0.0047
X0.0075 Y0.5099 Z0.0071
X0.0073 Y0.5108 Z0.0097
X0.0072 Y0.5111 Z0.0125
G0 Z0.33
X0.0093 Y1.0095
Z0.17
G1 Z0.1025 F39.4
G18 G3 X-0.0032 Z0.09 I-0.0125 K0.
G1 X-0.0095
G17 G3 X-0.019 Y1. I0. J-0.0095
X0.019 Z0.0703 I0.019 J0. F15.
X-0.019 Z0.0506 I-0.019 J0.
X0.019 Z0.0309 I0.019 J0.
X-0.019 Z0.0113 I-0.019 J0.
X0.0043 Y0.9815 Z0. I0.019 J0.
X-0.0043 Y1.0185 I-0.0043 J0.0185
X0.0043 Y0.9815 I0.0043 J-0.0185
X0.0114 Y0.9929 I-0.0021 J0.0093 F39.4
G1 X0.01 Y0.999
X0.0094 Y1.0017 Z0.0003
X0.0088 Y1.0042 Z0.0012
X0.0082 Y1.0066 Z0.0027
X0.0078 Y1.0085 Z0.0047
X0.0075 Y1.0099 Z0.0071
X0.0073 Y1.0108 Z0.0097
X0.0072 Y1.0111 Z0.0125
G0 Z0.33
X0.0093 Y1.5095
Z0.17
G1 Z0.1025 F39.4
G18 G3 X-0.0032 Z0.09 I-0.0125 K0.
G1 X-0.0095
G17 G3 X-0.019 Y1.5 I0. J-0.0095
X0.019 Z0.0703 I0.019 J0. F15.
X-0.019 Z0.0506 I-0.019 J0.
X0.019 Z0.0309 I0.019 J0.
X-0.019 Z0.0113 I-0.019 J0.
X0.0043 Y1.4815 Z0. I0.019 J0.
X-0.0043 Y1.5185 I-0.0043 J0.0185
X0.0043 Y1.4815 I0.0043 J-0.0185
X0.0114 Y1.4929 I-0.0021 J0.0093 F39.4
G1 X0.01 Y1.499
X0.0094 Y1.5017 Z0.0003
X0.0088 Y1.5042 Z0.0012
X0.0082 Y1.5066 Z0.0027
X0.0078 Y1.5085 Z0.0047
X0.0075 Y1.5099 Z0.0071
X0.0073 Y1.5108 Z0.0097
X0.0072 Y1.5111 Z0.0125
G0 Z0.33
X0.0093 Y2.0095
Z0.17
G1 Z0.1025 F39.4
G18 G3 X-0.0032 Z0.09 I-0.0125 K0.
G1 X-0.0095
G17 G3 X-0.019 Y2. I0. J-0.0095
X0.019 Z0.0703 I0.019 J0. F15.
X-0.019 Z0.0506 I-0.019 J0.
X0.019 Z0.0309 I0.019 J0.
X-0.019 Z0.0113 I-0.019 J0.
X0.0043 Y1.9815 Z0. I0.019 J0.
X-0.0043 Y2.0185 I-0.0043 J0.0185
X0.0043 Y1.9815 I0.0043 J-0.0185
X0.0114 Y1.9929 I-0.0021 J0.0093 F39.4
G1 X0.01 Y1.999
X0.0094 Y2.0017 Z0.0003
X0.0088 Y2.0042 Z0.0012
X0.0082 Y2.0066 Z0.0027
X0.0078 Y2.0085 Z0.0047
X0.0075 Y2.0099 Z0.0071
X0.0073 Y2.0108 Z0.0097
X0.0072 Y2.0111 Z0.0125
G0 Z0.73

(2D CONTOUR3)
M8
G0 X2.2175 Y-0.5827
Z0.43
Z0.33
G1 Z0.1694 F13.1
Z0.0125
X2.2174 Y-0.5825 Z0.0097
X2.2169 Y-0.5817 Z0.0071
X2.2163 Y-0.5803 Z0.0047
X2.2153 Y-0.5786 Z0.0027
X2.2142 Y-0.5765 Z0.0012
X2.213 Y-0.5741 Z0.0003
X2.2117 Y-0.5717 Z0.
X2.2059 Y-0.5606 F39.4
G3 X2.189 Y-0.5553 I-0.0111 J-0.0058
G2 X2.16 Y-0.5625 I-0.029 J0.0553 F15.
G1 X0.75
G3 X0.5625 Y-0.75 I0. J-0.1875
G1 Y-2.16
G2 X0.5442 Y-2.2042 I-0.0625 J0.
G1 X0.4592 Y-2.2892
G2 X0.415 Y-2.3075 I-0.0442 J0.0442
G1 X-0.415
G2 X-0.4592 Y-2.2892 I0. J0.0625
G1 X-0.5442 Y-2.2042
G2 X-0.5625 Y-2.16 I0.0442 J0.0442
G1 Y-0.75
G3 X-0.75 Y-0.5625 I-0.1875 J0.
G1 X-2.16
G2 X-2.2042 Y-0.5442 I0. J0.0625
G1 X-2.2892 Y-0.4592
G2 X-2.3075 Y-0.415 I0.0442 J0.0442
G1 Y0.415
G2 X-2.2892 Y0.4592 I0.0625 J0.
G1 X-2.2042 Y0.5442
G2 X-2.16 Y0.5625 I0.0442 J-0.0442
G1 X-0.75
G3 X-0.5625 Y0.75 I0. J0.1875
G1 Y2.16
G2 X-0.5442 Y2.2042 I0.0625 J0.
G1 X-0.4592 Y2.2892
G2 X-0.415 Y2.3075 I0.0442 J-0.0442
G1 X0.415
G2 X0.4592 Y2.2892 I0. J-0.0625
G1 X0.5442 Y2.2042
G2 X0.5625 Y2.16 I-0.0442 J-0.0442
G1 Y0.75
G3 X0.75 Y0.5625 I0.1875 J0.
G1 X2.16
G2 X2.2042 Y0.5442 I0. J-0.0625
G1 X2.2892 Y0.4592
G2 X2.3075 Y0.415 I-0.0442 J-0.0442
G1 Y-0.415
G2 X2.2892 Y-0.4592 I-0.0625 J0.
G1 X2.2042 Y-0.5442
G2 X2.189 Y-0.5553 I-0.0442 J0.0442
G3 X2.1838 Y-0.5722 I0.0058 J-0.0111 F39.4
G1 X2.1896 Y-0.5833
X2.1909 Y-0.5858 Z0.0003
X2.1921 Y-0.5881 Z0.0012
X2.1932 Y-0.5902 Z0.0027
X2.1941 Y-0.5919 Z0.0047
X2.1948 Y-0.5933 Z0.0071
X2.1952 Y-0.5941 Z0.0097
X2.1954 Y-0.5944 Z0.0125
G0 Z0.43

M9
G28 G91 Z0.
G28 X0. Y0.
M30
