(VEXTGUSSET)
(T1  D=0.125 CR=0. - ZMIN=-0.09 - FLAT END MILL)
G90 G94 G91.1 G40 G49 G17
G20
G28 G91 Z0.
G90

(2D CONTOUR2)
M5
M9
T1 M6
SG54
M8
G0 X3.4323 Y-0.4164
G43 Z0.34 H1
Z0.24
G1 Z0.0794 F13.1
Z-0.0775
X3.432 Z-0.0803
X3.431 Y-0.4162 Z-0.0829
X3.4296 Y-0.416 Z-0.0853
X3.4276 Y-0.4158 Z-0.0873
X3.4253 Y-0.4154 Z-0.0888
X3.4226 Y-0.4151 Z-0.0897
X3.4199 Y-0.4147 Z-0.09
X3.4075 Y-0.413 F39.4
G3 X3.3934 Y-0.4236 I-0.0017 J-0.0124
G2 X3.3757 Y-0.4592 I-0.0619 J0.0086 F15.
G1 X3.2907 Y-0.5442
G2 X3.2465 Y-0.5625 I-0.0442 J0.0442
G1 X2.3315
G3 X2.144 Y-0.75 I0. J-0.1875
G1 Y-2.665
G2 X2.1257 Y-2.7092 I-0.0625 J0.
G1 X2.0407 Y-2.7942
G2 X1.9965 Y-2.8125 I-0.0442 J0.0442
G1 X1.1665
G2 X1.1223 Y-2.7942 I0. J0.0625
G1 X1.0373 Y-2.7092
G2 X1.019 Y-2.665 I0.0442 J0.0442
G1 Y-0.75
G3 X0.8315 Y-0.5625 I-0.1875 J0.
G1 X-0.0835
G2 X-0.1277 Y-0.5442 I0. J0.0625
G1 X-0.2127 Y-0.4592
G2 X-0.231 Y-0.415 I0.0442 J0.0442
G1 Y0.415
G2 X-0.2127 Y0.4592 I0.0625 J0.
G1 X-0.1277 Y0.5442
G2 X-0.0835 Y0.5625 I0.0442 J-0.0442
G1 X3.2465
G2 X3.2907 Y0.5442 I0. J-0.0625
G1 X3.3757 Y0.4592
G2 X3.394 Y0.415 I-0.0442 J-0.0442
G1 Y-0.415
G2 X3.3934 Y-0.4236 I-0.0625 J0.
G3 X3.4041 Y-0.4377 I0.0124 J-0.0017 F39.4
G1 X3.4164 Y-0.4394
X3.4192 Y-0.4398 Z-0.0897
X3.4218 Y-0.4402 Z-0.0888
X3.4242 Y-0.4405 Z-0.0873
X3.4261 Y-0.4408 Z-0.0853
X3.4276 Y-0.441 Z-0.0829
X3.4285 Y-0.4411 Z-0.0803
X3.4288 Y-0.4412 Z-0.0775
G0 Z0.34

M9
G28 G91 Z0.
G28 X0. Y0.
M30
