(VEXTGUSSET)
(T1  D=0.125 CR=0. - ZMIN=-0.09 - FLAT END MILL)
G90 G94 G91.1 G40 G49 G17
G20
G28 G91 Z0.
G90

(BORE2)
M5
M9
T1 M6
G54
M8
G0 X1.5723 Y-2.5095
G43 Z0.64 H1
Z0.08
G1 Z0.0125 F39.4
G18 G2 X1.5848 Z0. I0.0125 K0.
G1 X1.591
G17 G3 X1.6005 Y-2.5 I0. J0.0095
X1.5625 Z-0.0197 I-0.019 J0. F15.
X1.6005 Z-0.0394 I0.019 J0.
X1.5625 Z-0.0591 I-0.019 J0.
X1.6005 Z-0.0787 I0.019 J0.
X1.5772 Y-2.4815 Z-0.09 I-0.019 J0.
X1.5858 Y-2.5185 I0.0043 J-0.0185
X1.5772 Y-2.4815 I-0.0043 J0.0185
X1.5701 Y-2.4929 I0.0021 J-0.0093 F39.4
G1 X1.5715 Y-2.499
X1.5721 Y-2.5017 Z-0.0897
X1.5727 Y-2.5042 Z-0.0888
X1.5733 Y-2.5066 Z-0.0873
X1.5737 Y-2.5085 Z-0.0853
X1.574 Y-2.5099 Z-0.0829
X1.5742 Y-2.5108 Z-0.0803
X1.5743 Y-2.5111 Z-0.0775
G0 Z0.24
X1.5723 Y-2.0095
Z0.08
G1 Z0.0125 F39.4
G18 G2 X1.5848 Z0. I0.0125 K0.
G1 X1.591
G17 G3 X1.6005 Y-2. I0. J0.0095
X1.5625 Z-0.0197 I-0.019 J0. F15.
X1.6005 Z-0.0394 I0.019 J0.
X1.5625 Z-0.0591 I-0.019 J0.
X1.6005 Z-0.0787 I0.019 J0.
X1.5772 Y-1.9815 Z-0.09 I-0.019 J0.
X1.5858 Y-2.0185 I0.0043 J-0.0185
X1.5772 Y-1.9815 I-0.0043 J0.0185
X1.5701 Y-1.9929 I0.0021 J-0.0093 F39.4
G1 X1.5715 Y-1.999
X1.5721 Y-2.0017 Z-0.0897
X1.5727 Y-2.0042 Z-0.0888
X1.5733 Y-2.0066 Z-0.0873
X1.5737 Y-2.0085 Z-0.0853
X1.574 Y-2.0099 Z-0.0829
X1.5742 Y-2.0108 Z-0.0803
X1.5743 Y-2.0111 Z-0.0775
G0 Z0.24
X1.5723 Y-1.5095
Z0.08
G1 Z0.0125 F39.4
G18 G2 X1.5848 Z0. I0.0125 K0.
G1 X1.591
G17 G3 X1.6005 Y-1.5 I0. J0.0095
X1.5625 Z-0.0197 I-0.019 J0. F15.
X1.6005 Z-0.0394 I0.019 J0.
X1.5625 Z-0.0591 I-0.019 J0.
X1.6005 Z-0.0787 I0.019 J0.
X1.5772 Y-1.4815 Z-0.09 I-0.019 J0.
X1.5858 Y-1.5185 I0.0043 J-0.0185
X1.5772 Y-1.4815 I-0.0043 J0.0185
X1.5701 Y-1.4929 I0.0021 J-0.0093 F39.4
G1 X1.5715 Y-1.499
X1.5721 Y-1.5017 Z-0.0897
X1.5727 Y-1.5042 Z-0.0888
X1.5733 Y-1.5066 Z-0.0873
X1.5737 Y-1.5085 Z-0.0853
X1.574 Y-1.5099 Z-0.0829
X1.5742 Y-1.5108 Z-0.0803
X1.5743 Y-1.5111 Z-0.0775
G0 Z0.24
X1.5723 Y-1.0095
Z0.08
G1 Z0.0125 F39.4
G18 G2 X1.5848 Z0. I0.0125 K0.
G1 X1.591
G17 G3 X1.6005 Y-1. I0. J0.0095
X1.5625 Z-0.0197 I-0.019 J0. F15.
X1.6005 Z-0.0394 I0.019 J0.
X1.5625 Z-0.0591 I-0.019 J0.
X1.6005 Z-0.0787 I0.019 J0.
X1.5772 Y-0.9815 Z-0.09 I-0.019 J0.
X1.5858 Y-1.0185 I0.0043 J-0.0185
X1.5772 Y-0.9815 I-0.0043 J0.0185
X1.5701 Y-0.9929 I0.0021 J-0.0093 F39.4
G1 X1.5715 Y-0.999
X1.5721 Y-1.0017 Z-0.0897
X1.5727 Y-1.0042 Z-0.0888
X1.5733 Y-1.0066 Z-0.0873
X1.5737 Y-1.0085 Z-0.0853
X1.574 Y-1.0099 Z-0.0829
X1.5742 Y-1.0108 Z-0.0803
X1.5743 Y-1.0111 Z-0.0775
G0 Z0.24
X1.5723 Y-0.5095
Z0.08
G1 Z0.0125 F39.4
G18 G2 X1.5848 Z0. I0.0125 K0.
G1 X1.591
G17 G3 X1.6005 Y-0.5 I0. J0.0095
X1.5625 Z-0.0197 I-0.019 J0. F15.
X1.6005 Z-0.0394 I0.019 J0.
X1.5625 Z-0.0591 I-0.019 J0.
X1.6005 Z-0.0787 I0.019 J0.
X1.5772 Y-0.4815 Z-0.09 I-0.019 J0.
X1.5858 Y-0.5185 I0.0043 J-0.0185
X1.5772 Y-0.4815 I-0.0043 J0.0185
X1.5701 Y-0.4929 I0.0021 J-0.0093 F39.4
G1 X1.5715 Y-0.499
X1.5721 Y-0.5017 Z-0.0897
X1.5727 Y-0.5042 Z-0.0888
X1.5733 Y-0.5066 Z-0.0873
X1.5737 Y-0.5085 Z-0.0853
X1.574 Y-0.5099 Z-0.0829
X1.5742 Y-0.5108 Z-0.0803
X1.5743 Y-0.5111 Z-0.0775
G0 Z0.24
X0.0723 Y-0.0095
Z0.08
G1 Z0.0125 F39.4
G18 G2 X0.0848 Z0. I0.0125 K0.
G1 X0.091
G17 G3 X0.1005 Y0. I0. J0.0095
X0.0625 Z-0.0197 I-0.019 J0. F15.
X0.1005 Z-0.0394 I0.019 J0.
X0.0625 Z-0.0591 I-0.019 J0.
X0.1005 Z-0.0787 I0.019 J0.
X0.0772 Y0.0185 Z-0.09 I-0.019 J0.
X0.0858 Y-0.0185 I0.0043 J-0.0185
X0.0772 Y0.0185 I-0.0043 J0.0185
X0.0701 Y0.0071 I0.0021 J-0.0093 F39.4
G1 X0.0715 Y0.001
X0.0721 Y-0.0017 Z-0.0897
X0.0727 Y-0.0042 Z-0.0888
X0.0733 Y-0.0066 Z-0.0873
X0.0737 Y-0.0085 Z-0.0853
X0.074 Y-0.0099 Z-0.0829
X0.0742 Y-0.0108 Z-0.0803
X0.0743 Y-0.0111 Z-0.0775
G0 Z0.24
X0.5722 Y-0.0095
Z0.08
G1 Z0.0125 F39.4
G18 G2 X0.5847 Z0. I0.0125 K0.
G1 X0.591
G17 G3 X0.6005 Y0. I0. J0.0095
X0.5625 Z-0.0197 I-0.019 J0. F15.
X0.6005 Z-0.0394 I0.019 J0.
X0.5625 Z-0.0591 I-0.019 J0.
X0.6005 Z-0.0787 I0.019 J0.
X0.5772 Y0.0185 Z-0.09 I-0.019 J0.
X0.5858 Y-0.0185 I0.0043 J-0.0185
X0.5772 Y0.0185 I-0.0043 J0.0185
X0.5701 Y0.0071 I0.0021 J-0.0093 F39.4
G1 X0.5715 Y0.001
X0.5721 Y-0.0017 Z-0.0897
X0.5727 Y-0.0042 Z-0.0888
X0.5733 Y-0.0066 Z-0.0873
X0.5737 Y-0.0085 Z-0.0853
X0.574 Y-0.0099 Z-0.0829
X0.5742 Y-0.0108 Z-0.0803
X0.5743 Y-0.0111 Z-0.0775
G0 Z0.24
X1.0722 Y-0.0095
Z0.08
G1 Z0.0125 F39.4
G18 G2 X1.0848 Z0. I0.0125 K0.
G1 X1.091
G17 G3 X1.1005 Y0. I0. J0.0095
X1.0625 Z-0.0197 I-0.019 J0. F15.
X1.1005 Z-0.0394 I0.019 J0.
X1.0625 Z-0.0591 I-0.019 J0.
X1.1005 Z-0.0787 I0.019 J0.
X1.0772 Y0.0185 Z-0.09 I-0.019 J0.
X1.0858 Y-0.0185 I0.0043 J-0.0185
X1.0772 Y0.0185 I-0.0043 J0.0185
X1.0701 Y0.0071 I0.0021 J-0.0093 F39.4
G1 X1.0715 Y0.001
X1.0721 Y-0.0017 Z-0.0897
X1.0727 Y-0.0042 Z-0.0888
X1.0733 Y-0.0066 Z-0.0873
X1.0737 Y-0.0085 Z-0.0853
X1.074 Y-0.0099 Z-0.0829
X1.0742 Y-0.0108 Z-0.0803
X1.0743 Y-0.0111 Z-0.0775
G0 Z0.24
X1.5723 Y-0.0095
Z0.08
G1 Z0.0125 F39.4
G18 G2 X1.5848 Z0. I0.0125 K0.
G1 X1.591
G17 G3 X1.6005 Y0. I0. J0.0095
X1.5625 Z-0.0197 I-0.019 J0. F15.
X1.6005 Z-0.0394 I0.019 J0.
X1.5625 Z-0.0591 I-0.019 J0.
X1.6005 Z-0.0787 I0.019 J0.
X1.5772 Y0.0185 Z-0.09 I-0.019 J0.
X1.5858 Y-0.0185 I0.0043 J-0.0185
X1.5772 Y0.0185 I-0.0043 J0.0185
X1.5701 Y0.0071 I0.0021 J-0.0093 F39.4
G1 X1.5715 Y0.001
X1.5721 Y-0.0017 Z-0.0897
X1.5727 Y-0.0042 Z-0.0888
X1.5733 Y-0.0066 Z-0.0873
X1.5737 Y-0.0085 Z-0.0853
X1.574 Y-0.0099 Z-0.0829
X1.5742 Y-0.0108 Z-0.0803
X1.5743 Y-0.0111 Z-0.0775
G0 Z0.24
X2.0723 Y-0.0095
Z0.08
G1 Z0.0125 F39.4
G18 G2 X2.0847 Z0. I0.0125 K0.
G1 X2.091
G17 G3 X2.1005 Y0. I0. J0.0095
X2.0625 Z-0.0197 I-0.019 J0. F15.
X2.1005 Z-0.0394 I0.019 J0.
X2.0625 Z-0.0591 I-0.019 J0.
X2.1005 Z-0.0787 I0.019 J0.
X2.0772 Y0.0185 Z-0.09 I-0.019 J0.
X2.0858 Y-0.0185 I0.0043 J-0.0185
X2.0772 Y0.0185 I-0.0043 J0.0185
X2.0701 Y0.0071 I0.0021 J-0.0093 F39.4
G1 X2.0715 Y0.001
X2.0721 Y-0.0017 Z-0.0897
X2.0727 Y-0.0042 Z-0.0888
X2.0733 Y-0.0066 Z-0.0873
X2.0737 Y-0.0085 Z-0.0853
X2.074 Y-0.0099 Z-0.0829
X2.0742 Y-0.0108 Z-0.0803
X2.0743 Y-0.0111 Z-0.0775
G0 Z0.24
X2.5723 Y-0.0095
Z0.08
G1 Z0.0125 F39.4
G18 G2 X2.5847 Z0. I0.0125 K0.
G1 X2.591
G17 G3 X2.6005 Y0. I0. J0.0095
X2.5625 Z-0.0197 I-0.019 J0. F15.
X2.6005 Z-0.0394 I0.019 J0.
X2.5625 Z-0.0591 I-0.019 J0.
X2.6005 Z-0.0787 I0.019 J0.
X2.5772 Y0.0185 Z-0.09 I-0.019 J0.
X2.5858 Y-0.0185 I0.0043 J-0.0185
X2.5772 Y0.0185 I-0.0043 J0.0185
X2.5701 Y0.0071 I0.0021 J-0.0093 F39.4
G1 X2.5715 Y0.001
X2.5721 Y-0.0017 Z-0.0897
X2.5727 Y-0.0042 Z-0.0888
X2.5733 Y-0.0066 Z-0.0873
X2.5737 Y-0.0085 Z-0.0853
X2.574 Y-0.0099 Z-0.0829
X2.5742 Y-0.0108 Z-0.0803
X2.5743 Y-0.0111 Z-0.0775
G0 Z0.24
X3.0722 Y-0.0095
Z0.08
G1 Z0.0125 F39.4
G18 G2 X3.0848 Z0. I0.0125 K0.
G1 X3.091
G17 G3 X3.1005 Y0. I0. J0.0095
X3.0625 Z-0.0197 I-0.019 J0. F15.
X3.1005 Z-0.0394 I0.019 J0.
X3.0625 Z-0.0591 I-0.019 J0.
X3.1005 Z-0.0787 I0.019 J0.
X3.0772 Y0.0185 Z-0.09 I-0.019 J0.
X3.0858 Y-0.0185 I0.0043 J-0.0185
X3.0772 Y0.0185 I-0.0043 J0.0185
X3.0701 Y0.0071 I0.0021 J-0.0093 F39.4
G1 X3.0715 Y0.001
X3.0721 Y-0.0017 Z-0.0897
X3.0727 Y-0.0042 Z-0.0888
X3.0733 Y-0.0066 Z-0.0873
X3.0737 Y-0.0085 Z-0.0853
X3.074 Y-0.0099 Z-0.0829
X3.0742 Y-0.0108 Z-0.0803
X3.0743 Y-0.0111 Z-0.0775
G0 Z0.64

(2D CONTOUR2)
M8
G0 X-0.2658 Y-0.4412
Z0.34
Z0.24
G1 Z0.0794 F13.1
Z-0.0775
X-0.2655 Y-0.4411 Z-0.0803
X-0.2646 Y-0.441 Z-0.0829
X-0.2631 Y-0.4408 Z-0.0853
X-0.2612 Y-0.4405 Z-0.0873
X-0.2588 Y-0.4402 Z-0.0888
X-0.2562 Y-0.4398 Z-0.0897
X-0.2534 Y-0.4394 Z-0.09
X-0.2411 Y-0.4377 F39.4
G3 X-0.2304 Y-0.4236 I-0.0017 J0.0124
G2 X-0.231 Y-0.415 I0.0619 J0.0086 F15.
G1 Y0.415
G2 X-0.2127 Y0.4592 I0.0625 J0.
G1 X-0.1277 Y0.5442
G2 X-0.0835 Y0.5625 I0.0442 J-0.0442
G1 X3.2465
G2 X3.2907 Y0.5442 I0. J-0.0625
G1 X3.3757 Y0.4592
G2 X3.394 Y0.415 I-0.0442 J-0.0442
G1 Y-0.415
G2 X3.3757 Y-0.4592 I-0.0625 J0.
G1 X3.2907 Y-0.5442
G2 X3.2465 Y-0.5625 I-0.0442 J0.0442
G1 X2.3315
G3 X2.144 Y-0.75 I0. J-0.1875
G1 Y-2.665
G2 X2.1257 Y-2.7092 I-0.0625 J0.
G1 X2.0407 Y-2.7942
G2 X1.9965 Y-2.8125 I-0.0442 J0.0442
G1 X1.1665
G2 X1.1223 Y-2.7942 I0. J0.0625
G1 X1.0373 Y-2.7092
G2 X1.019 Y-2.665 I0.0442 J0.0442
G1 Y-0.75
G3 X0.8315 Y-0.5625 I-0.1875 J0.
G1 X-0.0835
G2 X-0.1277 Y-0.5442 I0. J0.0625
G1 X-0.2127 Y-0.4592
G2 X-0.2304 Y-0.4236 I0.0442 J0.0442
G3 X-0.2445 Y-0.413 I-0.0124 J-0.0017 F39.4
G1 X-0.2569 Y-0.4147
X-0.2596 Y-0.4151 Z-0.0897
X-0.2623 Y-0.4154 Z-0.0888
X-0.2646 Y-0.4158 Z-0.0873
X-0.2666 Y-0.416 Z-0.0853
X-0.268 Y-0.4162 Z-0.0829
X-0.269 Y-0.4164 Z-0.0803
X-0.2693 Z-0.0775
G0 Z0.34

M9
G28 G91 Z0.
G28 X0. Y0.
M30
